;FLAVOR:Marlin
;TIME:1593
;Filament used: 0.855159m
;Layer height: 0.2
;MINX:112.001
;MINY:112.001
;MINZ:0.2
;MAXX:147.999
;MAXY:147.999
;MAXZ:27.2
;LINEARADVANCEPROCESSED
;Generated with Cura_SteamEngine 4.12.1
M82 ;absolute extrusion mode
START_PRINT
M190 S60
M109 S210
G92 E0
G92 E0
;LAYER_COUNT:136
;LAYER:0
M107
G0 F9000 X112.947 Y112.814 Z0.2
;TYPE:SKIRT
G1 F3000 X113.33 Y112.509 E0.01628
G1 X113.758 Y112.271 E0.03257
G1 X114.218 Y112.105 E0.04884
G1 X114.699 Y112.016 E0.06511
G1 X115.001 Y112.001 E0.07516
G1 X144.999 Y112.001 E1.0729
G1 X145.487 Y112.041 E1.08919
G1 X145.962 Y112.16 E1.10547
G1 X146.411 Y112.354 E1.12174
G1 X146.823 Y112.619 E1.13804
G1 X147.186 Y112.947 E1.15431
G1 X147.491 Y113.33 E1.17059
G1 X147.729 Y113.758 E1.18688
G1 X147.895 Y114.218 E1.20315
G1 X147.984 Y114.699 E1.21942
G1 X147.999 Y115.001 E1.22947
G1 X147.999 Y144.999 E2.22721
G1 X147.959 Y145.487 E2.2435
G1 X147.84 Y145.962 E2.25978
G1 X147.646 Y146.411 E2.27605
G1 X147.381 Y146.823 E2.29234
G1 X147.053 Y147.186 E2.30862
G1 X146.67 Y147.491 E2.3249
G1 X146.242 Y147.729 E2.34119
G1 X145.782 Y147.895 E2.35745
G1 X145.301 Y147.984 E2.37372
G1 X144.999 Y147.999 E2.38378
G1 X115.001 Y147.999 E3.38152
G1 X114.513 Y147.959 E3.3978
G1 X114.038 Y147.84 E3.41409
G1 X113.589 Y147.646 E3.43036
G1 X113.177 Y147.381 E3.44665
G1 X112.814 Y147.053 E3.46292
G1 X112.509 Y146.67 E3.47921
G1 X112.271 Y146.242 E3.4955
G1 X112.105 Y145.782 E3.51176
G1 X112.016 Y145.301 E3.52803
G1 X112.001 Y144.999 E3.53809
G1 X112.001 Y115.001 E4.53582
G1 X112.041 Y114.513 E4.55211
G1 X112.16 Y114.038 E4.5684
G1 X112.354 Y113.589 E4.58467
G1 X112.451 Y113.439 E4.59061
G0 F2700 X112.619 Y113.177
G0 X112.947 Y112.814
G0 F9000 X113.339 Y113.001
G1 F3000 X113.714 Y112.742 E4.60576
G1 X114.128 Y112.552 E4.62092
G1 X114.569 Y112.437 E4.63607
G1 X115.001 Y112.401 E4.65049
G1 X144.999 Y112.401 E5.64823
G1 X145.453 Y112.441 E5.66339
G1 X145.893 Y112.559 E5.67854
G1 X146.305 Y112.753 E5.69369
G1 X146.678 Y113.016 E5.70887
G1 X146.999 Y113.339 E5.72401
G1 X147.258 Y113.714 E5.73917
G1 X147.448 Y114.128 E5.75432
G1 X147.563 Y114.569 E5.76948
G1 X147.599 Y115.001 E5.7839
G1 X147.599 Y144.999 E6.78163
G1 X147.559 Y145.453 E6.79679
G1 X147.441 Y145.893 E6.81194
G1 X147.247 Y146.305 E6.82709
G1 X146.984 Y146.678 E6.84227
G1 X146.661 Y146.999 E6.85742
G1 X146.286 Y147.258 E6.87257
G1 X145.872 Y147.448 E6.88773
G1 X145.431 Y147.563 E6.90288
G1 X144.999 Y147.599 E6.9173
G1 X115.001 Y147.599 E7.91504
G1 X114.547 Y147.559 E7.9302
G1 X114.107 Y147.441 E7.94535
G1 X113.695 Y147.247 E7.9605
G1 X113.322 Y146.984 E7.97568
G1 X113.001 Y146.661 E7.99082
G1 X112.742 Y146.286 E8.00598
G1 X112.552 Y145.872 E8.02113
G1 X112.437 Y145.431 E8.03629
G1 X112.401 Y144.999 E8.05071
G1 X112.401 Y115.001 E9.04844
G1 X112.441 Y114.547 E9.0636
G1 X112.559 Y114.107 E9.07875
G1 X112.753 Y113.695 E9.0939
G1 X112.818 Y113.604 E9.09762
G0 F2700 X113.016 Y113.322
G0 X113.339 Y113.001
G0 F9000 X113.411 Y113.481
G1 F3000 X113.728 Y113.207 E9.11156
G1 X114.091 Y112.998 E9.12549
G1 X114.488 Y112.862 E9.13945
G1 X115.001 Y112.801 E9.15663
G1 X144.999 Y112.801 E10.15437
G1 X145.416 Y112.841 E10.1683
G1 X145.818 Y112.959 E10.18223
G1 X146.19 Y113.152 E10.19617
G1 X146.519 Y113.411 E10.2101
G1 X146.793 Y113.728 E10.22404
G1 X147.002 Y114.091 E10.23797
G1 X147.138 Y114.488 E10.25192
G1 X147.199 Y115.001 E10.26911
G1 X147.199 Y144.999 E11.26684
G1 X147.159 Y145.416 E11.28078
G1 X147.041 Y145.818 E11.29471
G1 X146.848 Y146.19 E11.30865
G1 X146.589 Y146.519 E11.32258
G1 X146.272 Y146.793 E11.33651
G1 X145.909 Y147.002 E11.35045
G1 X145.512 Y147.138 E11.3644
G1 X144.999 Y147.199 E11.38159
G1 X115.001 Y147.199 E12.37932
G1 X114.584 Y147.159 E12.39326
G1 X114.182 Y147.041 E12.40719
G1 X113.81 Y146.848 E12.42113
G1 X113.481 Y146.589 E12.43506
G1 X113.207 Y146.272 E12.44899
G1 X112.998 Y145.909 E12.46292
G1 X112.862 Y145.512 E12.47688
G1 X112.801 Y144.999 E12.49406
G1 X112.801 Y115.001 E13.4918
G1 X112.841 Y114.584 E13.50574
G1 X112.959 Y114.182 E13.51967
G1 X112.977 Y114.149 E13.52092
G0 F2700 X113.152 Y113.81
G0 X113.411 Y113.481
G0 F9000 X113.804 Y113.656
G1 F3000 X114.113 Y113.436 E13.53354
G1 X114.46 Y113.284 E13.54614
G1 X115.001 Y113.201 E13.56434
G1 X144.999 Y113.201 E14.56208
G1 X145.376 Y113.241 E14.57469
G1 X145.736 Y113.359 E14.58729
G1 X146.063 Y113.549 E14.59987
G1 X146.344 Y113.804 E14.61249
G1 X146.564 Y114.113 E14.6251
G1 X146.716 Y114.46 E14.6377
G1 X146.799 Y115.001 E14.65591
G1 X146.799 Y144.999 E15.65365
G1 X146.759 Y145.376 E15.66625
G1 X146.641 Y145.736 E15.67886
G1 X146.451 Y146.063 E15.69143
G1 X146.196 Y146.344 E15.70405
G1 X145.887 Y146.564 E15.71667
G1 X145.54 Y146.716 E15.72927
G1 X144.999 Y146.799 E15.74747
G1 X115.001 Y146.799 E16.74521
G1 X114.624 Y146.759 E16.75782
G1 X114.264 Y146.641 E16.77042
G1 X113.937 Y146.451 E16.783
G1 X113.656 Y146.196 E16.79562
G1 X113.436 Y145.887 E16.80824
G1 X113.284 Y145.54 E16.82084
G1 X113.201 Y144.999 E16.83904
G1 X113.201 Y115.001 E17.83678
G1 X113.241 Y114.624 E17.84939
G1 X113.346 Y114.304 E17.86059
G0 F2700 X113.359 Y114.264
G0 X113.549 Y113.937
G0 X113.804 Y113.656
G0 F9000 X113.946 Y114.08
G1 F3000 X114.194 Y113.857 E17.87168
G1 X114.488 Y113.698 E17.8828
G1 X114.812 Y113.614 E17.89393
G1 X115.001 Y113.601 E17.90023
G1 X144.999 Y113.601 E18.89797
G1 X145.331 Y113.641 E18.90909
G1 X145.643 Y113.758 E18.92018
G1 X145.92 Y113.946 E18.93131
G1 X146.143 Y114.194 E18.9424
G1 X146.302 Y114.488 E18.95352
G1 X146.386 Y114.812 E18.96465
G1 X146.399 Y115.001 E18.97095
G1 X146.399 Y144.999 E19.96869
G1 X146.359 Y145.331 E19.97981
G1 X146.242 Y145.643 E19.9909
G1 X146.054 Y145.92 E20.00203
G1 X145.806 Y146.143 E20.01312
G1 X145.512 Y146.302 E20.02424
G1 X145.188 Y146.386 E20.03537
G1 X144.999 Y146.399 E20.04167
G1 X115.001 Y146.399 E21.03941
G1 X114.669 Y146.359 E21.05053
G1 X114.357 Y146.242 E21.06162
G1 X114.08 Y146.054 E21.07275
G1 X113.857 Y145.806 E21.08384
G1 X113.698 Y145.512 E21.09496
G1 X113.614 Y145.188 E21.10609
G1 X113.601 Y144.999 E21.1124
G1 X113.601 Y115.001 E22.11013
G1 X113.626 Y114.801 E22.11684
G0 F2700 X113.641 Y114.669
G0 X113.758 Y114.357
G0 X113.946 Y114.08
G0 F9000 X114.34 Y114.25
G1 F3000 X114.576 Y114.096 E22.12621
G1 X114.846 Y114.013 E22.1356
G1 X115.001 Y114.001 E22.14077
G1 X144.999 Y114.001 E23.13851
G1 X145.278 Y114.041 E23.14789
G1 X145.535 Y114.157 E23.15727
G1 X145.75 Y114.34 E23.16666
G1 X145.904 Y114.576 E23.17603
G1 X145.987 Y114.846 E23.18542
G1 X145.999 Y115.001 E23.19059
G1 X145.999 Y144.999 E24.18833
G1 X145.959 Y145.278 E24.19771
G1 X145.843 Y145.535 E24.20708
G1 X145.66 Y145.75 E24.21648
G1 X145.424 Y145.904 E24.22585
G1 X145.154 Y145.987 E24.23524
G1 X144.999 Y145.999 E24.24041
G1 X115.001 Y145.999 E25.23815
G1 X114.722 Y145.959 E25.24753
G1 X114.465 Y145.843 E25.2569
G1 X114.25 Y145.66 E25.26629
G1 X114.096 Y145.424 E25.27567
G1 X114.013 Y145.154 E25.28506
G1 X114.001 Y144.999 E25.29023
G1 X114.001 Y115.001 E26.28797
G1 X114.008 Y114.957 E26.28945
G0 F2700 X114.041 Y114.722
G0 X114.157 Y114.465
G0 X114.34 Y114.25
G0 F9000 X114.554 Y114.6
G1 F3000 X114.727 Y114.467 E26.29671
G1 X115.001 Y114.401 E26.30608
G1 X144.999 Y114.401 E27.30382
G1 X145.214 Y114.441 E27.3111
G1 X145.4 Y114.554 E27.31833
G1 X145.533 Y114.727 E27.32559
G1 X145.599 Y115.001 E27.33497
G1 X145.599 Y144.999 E28.3327
G1 X145.559 Y145.214 E28.33998
G1 X145.446 Y145.4 E28.34722
G1 X145.273 Y145.533 E28.35447
G1 X144.999 Y145.599 E28.36385
G1 X115.001 Y145.599 E29.36158
G1 X114.786 Y145.559 E29.36886
G1 X114.6 Y145.446 E29.3761
G1 X114.467 Y145.273 E29.38335
G1 X114.401 Y144.999 E29.39273
G1 X114.401 Y115.366 E30.37833
G0 F2700 X114.401 Y115.001
G0 X114.441 Y114.786
G0 X114.554 Y114.6
G0 F9000 X114.84 Y114.882
G1 F3000 X115.001 Y114.801 E30.38432
G1 X144.999 Y114.801 E31.38206
G1 X145.118 Y114.84 E31.38622
G1 X145.199 Y115.001 E31.39222
G1 X145.199 Y144.999 E32.38996
G1 X145.16 Y145.118 E32.39412
G1 X144.999 Y145.199 E32.40011
G1 X115.001 Y145.199 E33.39785
G1 X114.882 Y145.16 E33.40202
G1 X114.801 Y144.999 E33.40801
G1 X114.801 Y115.676 E34.3833
G0 F2700 X114.801 Y115.001
G0 X114.84 Y114.882
;MESH:cube.stl
G0 F9000 X144.799 Y144.799
;TYPE:WALL-OUTER
G1 F3000 X115.201 Y144.799 E35.36773
G1 X115.201 Y115.201 E36.35217
G1 X144.799 Y115.201 E37.3366
G1 X144.799 Y143.999 E38.29442
G0 F2700 X144.799 Y144.799
G0 F9000 X144.409 Y144.409
;TYPE:SKIN
G1 F3000 X115.591 Y144.409 E39.25291
G1 X115.591 Y115.591 E40.21141
G1 X144.409 Y115.591 E41.1699
G1 X144.409 Y143.609 E42.10178
G0 F2700 X144.409 Y144.409
G0 F9000 X144.248 Y115.964
G1 F3000 X144.034 Y115.75 E42.11184
G0 F9000 X143.469 Y115.75
G1 F3000 X144.248 Y116.529 E42.14849
G0 F9000 X144.248 Y117.095
G1 F3000 X142.903 Y115.75 E42.21175
G0 F9000 X142.337 Y115.75
G1 F3000 X144.248 Y117.661 E42.30164
G0 F9000 X144.248 Y118.226
G1 F3000 X141.772 Y115.75 E42.4181
G0 F9000 X141.206 Y115.75
G1 F3000 X144.248 Y118.792 E42.56119
G0 F9000 X144.248 Y119.358
G1 F3000 X140.64 Y115.75 E42.7309
G0 F9000 X140.075 Y115.75
G1 F3000 X144.248 Y119.923 E42.92718
G0 F9000 X144.248 Y120.489
G1 F3000 X139.509 Y115.75 E43.15009
G0 F9000 X138.943 Y115.75
G1 F3000 X144.248 Y121.055 E43.39962
G0 F9000 X144.248 Y121.62
G1 F3000 X138.377 Y115.75 E43.67575
G0 F9000 X137.812 Y115.75
G1 F3000 X144.248 Y122.186 E43.97848
G0 F9000 X144.248 Y122.752
G1 F3000 X137.246 Y115.75 E44.30783
G0 F9000 X136.68 Y115.75
G1 F3000 X144.248 Y123.318 E44.66381
G0 F9000 X144.248 Y123.883
G1 F3000 X136.115 Y115.75 E45.04636
G0 F9000 X135.549 Y115.75
G1 F3000 X144.248 Y124.449 E45.45554
G0 F9000 X144.248 Y125.015
G1 F3000 X134.983 Y115.75 E45.89133
G0 F9000 X134.418 Y115.75
G1 F3000 X144.248 Y125.58 E46.35371
G0 F9000 X144.248 Y126.146
G1 F3000 X133.852 Y115.75 E46.8427
G0 F9000 X133.286 Y115.75
G1 F3000 X144.248 Y126.712 E47.35832
G0 F9000 X144.248 Y127.277
G1 F3000 X132.721 Y115.75 E47.90052
G0 F9000 X132.155 Y115.75
G1 F3000 X144.248 Y127.843 E48.46933
G0 F9000 X144.248 Y128.409
G1 F3000 X131.589 Y115.75 E49.06477
G0 F9000 X131.024 Y115.75
G1 F3000 X144.248 Y128.974 E49.68679
G0 F9000 X144.248 Y129.54
G1 F3000 X130.458 Y115.75 E50.33543
G0 F9000 X129.892 Y115.75
G1 F3000 X144.248 Y130.106 E51.01069
G0 F9000 X144.248 Y130.671
G1 F3000 X129.327 Y115.75 E51.71253
G0 F9000 X128.761 Y115.75
G1 F3000 X144.248 Y131.237 E52.44099
G0 F9000 X144.248 Y131.803
G1 F3000 X128.195 Y115.75 E53.19607
G0 F9000 X127.629 Y115.75
G1 F3000 X144.248 Y132.368 E53.97776
G0 F9000 X144.248 Y132.934
G1 F3000 X127.064 Y115.75 E54.78604
G0 F9000 X126.498 Y115.75
G1 F3000 X144.248 Y133.5 E55.62095
G0 F9000 X144.248 Y134.066
G1 F3000 X125.932 Y115.75 E56.48247
G0 F9000 X125.367 Y115.75
G1 F3000 X144.248 Y134.631 E57.37058
G0 F9000 X144.248 Y135.197
G1 F3000 X124.801 Y115.75 E58.28531
G0 F9000 X124.235 Y115.75
G1 F3000 X144.248 Y135.763 E59.22666
G0 F9000 X144.248 Y136.328
G1 F3000 X123.67 Y115.75 E60.19458
G0 F9000 X123.104 Y115.75
G1 F3000 X144.248 Y136.894 E61.18913
G0 F9000 X144.248 Y137.46
G1 F3000 X122.538 Y115.75 E62.2103
G0 F9000 X121.973 Y115.75
G1 F3000 X144.248 Y138.025 E63.25805
G0 F9000 X144.248 Y138.591
G1 F3000 X121.407 Y115.75 E64.33242
G0 F9000 X120.841 Y115.75
G1 F3000 X144.248 Y139.157 E65.43341
G0 F9000 X144.248 Y139.722
G1 F3000 X120.276 Y115.75 E66.56098
G0 F9000 X119.71 Y115.75
G1 F3000 X144.248 Y140.288 E67.71518
G0 F9000 X144.248 Y140.854
G1 F3000 X119.144 Y115.75 E68.89599
G0 F9000 X118.578 Y115.75
G1 F3000 X144.248 Y141.419 E70.10341
G0 F9000 X144.248 Y141.985
G1 F3000 X118.013 Y115.75 E71.33742
G0 F9000 X117.447 Y115.75
G1 F3000 X144.248 Y142.551 E72.59806
G0 F9000 X144.248 Y143.116
G1 F3000 X116.881 Y115.75 E73.88529
G0 F9000 X116.316 Y115.75
G1 F3000 X144.248 Y143.682 E75.19913
G0 F9000 X144.248 Y144.248
G1 F3000 X115.75 Y115.75 E76.53959
G0 F9000 X115.75 Y116.316
G1 F3000 X143.682 Y144.248 E77.85342
G0 F9000 X143.116 Y144.248
G1 F3000 X115.75 Y116.881 E79.14066
G0 F9000 X115.75 Y117.447
G1 F3000 X142.551 Y144.248 E80.4013
G0 F9000 X141.985 Y144.248
G1 F3000 X115.75 Y118.013 E81.63531
G0 F9000 X115.75 Y118.578
G1 F3000 X141.419 Y144.248 E82.84272
G0 F9000 X140.854 Y144.248
G1 F3000 X115.75 Y119.144 E84.02354
G0 F9000 X115.75 Y119.71
G1 F3000 X140.288 Y144.248 E85.17773
G0 F9000 X139.722 Y144.248
G1 F3000 X115.75 Y120.276 E86.3053
G0 F9000 X115.75 Y120.841
G1 F3000 X139.157 Y144.248 E87.4063
G0 F9000 X138.591 Y144.248
G1 F3000 X115.75 Y121.407 E88.48067
G0 F9000 X115.75 Y121.973
G1 F3000 X138.025 Y144.248 E89.52841
G0 F9000 X137.46 Y144.248
G1 F3000 X115.75 Y122.538 E90.54959
G0 F9000 X115.75 Y123.104
G1 F3000 X136.894 Y144.248 E91.54413
G0 F9000 X136.328 Y144.248
G1 F3000 X115.75 Y123.67 E92.51206
G0 F9000 X115.75 Y124.235
G1 F3000 X135.763 Y144.248 E93.45341
G0 F9000 X135.197 Y144.248
G1 F3000 X115.75 Y124.801 E94.36814
G0 F9000 X115.75 Y125.367
G1 F3000 X134.631 Y144.248 E95.25624
G0 F9000 X134.066 Y144.248
G1 F3000 X115.75 Y125.932 E96.11777
G0 F9000 X115.75 Y126.498
G1 F3000 X133.5 Y144.248 E96.95268
G0 F9000 X132.934 Y144.248
G1 F3000 X115.75 Y127.064 E97.76096
G0 F9000 X115.75 Y127.629
G1 F3000 X132.368 Y144.248 E98.54264
G0 F9000 X131.803 Y144.248
G1 F3000 X115.75 Y128.195 E99.29773
G0 F9000 X115.75 Y128.761
G1 F3000 X131.237 Y144.248 E100.02619
G0 F9000 X130.671 Y144.248
G1 F3000 X115.75 Y129.327 E100.72803
G0 F9000 X115.75 Y129.892
G1 F3000 X130.106 Y144.248 E101.40329
G0 F9000 X129.54 Y144.248
G1 F3000 X115.75 Y130.458 E102.05193
G0 F9000 X115.75 Y131.024
G1 F3000 X128.974 Y144.248 E102.67394
G0 F9000 X128.409 Y144.248
G1 F3000 X115.75 Y131.589 E103.26938
G0 F9000 X115.75 Y132.155
G1 F3000 X127.843 Y144.248 E103.8382
G0 F9000 X127.277 Y144.248
G1 F3000 X115.75 Y132.721 E104.3804
G0 F9000 X115.75 Y133.286
G1 F3000 X126.712 Y144.248 E104.89601
G0 F9000 X126.146 Y144.248
G1 F3000 X115.75 Y133.852 E105.38501
G0 F9000 X115.75 Y134.418
G1 F3000 X125.58 Y144.248 E105.84738
G0 F9000 X125.015 Y144.248
G1 F3000 X115.75 Y134.983 E106.28318
G0 F9000 X115.75 Y135.549
G1 F3000 X124.449 Y144.248 E106.69236
G0 F9000 X123.883 Y144.248
G1 F3000 X115.75 Y136.115 E107.07491
G0 F9000 X115.75 Y136.68
G1 F3000 X123.318 Y144.248 E107.43088
G0 F9000 X122.752 Y144.248
G1 F3000 X115.75 Y137.246 E107.76023
G0 F9000 X115.75 Y137.812
G1 F3000 X122.186 Y144.248 E108.06296
G0 F9000 X121.62 Y144.248
G1 F3000 X115.75 Y138.377 E108.3391
G0 F9000 X115.75 Y138.943
G1 F3000 X121.055 Y144.248 E108.58863
G0 F9000 X120.489 Y144.248
G1 F3000 X115.75 Y139.509 E108.81153
G0 F9000 X115.75 Y140.075
G1 F3000 X119.923 Y144.248 E109.00782
G0 F9000 X119.358 Y144.248
G1 F3000 X115.75 Y140.64 E109.17753
G0 F9000 X115.75 Y141.206
G1 F3000 X118.792 Y144.248 E109.32061
G0 F9000 X118.226 Y144.248
G1 F3000 X115.75 Y141.772 E109.43708
G0 F9000 X115.75 Y142.337
G1 F3000 X117.661 Y144.248 E109.52697
G0 F9000 X117.095 Y144.248
G1 F3000 X115.75 Y142.903 E109.59023
G0 F9000 X115.75 Y143.469
G1 F3000 X116.529 Y144.248 E109.62687
G0 F9000 X115.964 Y144.248
M104 S210
G1 F3000 X115.75 Y144.034 E109.63694
;MESH:NONMESH
G0 F300 X115.75 Y144.034 Z0.4
G0 F9000 X144.799 Y144.799
;TIME_ELAPSED:82.958082
;LAYER:1
M106 S85
;TYPE:WALL-OUTER
;MESH:cube.stl
G1 F3300 X115.201 Y144.799 E110.62137
G1 X115.201 Y115.201 E111.60581
G1 X144.799 Y115.201 E112.59024
G1 X144.799 Y143.999 E113.54806
G0 F2970 X144.799 Y144.799
G0 F9510 X144.409 Y144.409
;TYPE:SKIN
G1 F3000 X115.591 Y144.409 E114.50655
G1 X115.591 Y115.591 E115.46505
G1 X144.409 Y115.591 E116.42354
G1 X144.409 Y143.609 E117.35542
G0 F2700 X144.409 Y144.409
G0 F9510 X143.685 Y144.248
G1 F3000 X144.248 Y143.685 E117.3819
G0 F9510 X144.248 Y143.119
G1 F3000 X143.119 Y144.248 E117.435
G0 F9510 X142.554 Y144.248
G1 F3000 X144.248 Y142.554 E117.51469
G0 F9510 X144.248 Y141.988
G1 F3000 X141.988 Y144.248 E117.62099
G0 F9510 X141.422 Y144.248
G1 F3000 X144.248 Y141.422 E117.75391
G0 F9510 X144.248 Y140.857
G1 F3000 X140.857 Y144.248 E117.91342
G0 F9510 X140.291 Y144.248
G1 F3000 X144.248 Y140.291 E118.09954
G0 F9510 X144.248 Y139.725
G1 F3000 X139.725 Y144.248 E118.31229
G0 F9510 X139.16 Y144.248
G1 F3000 X144.248 Y139.16 E118.55161
G0 F9510 X144.248 Y138.594
