; generated by SuperSlicer 2.3.57 on 2022-03-10 at 18:53:29 UTC

; 

; external perimeters extrusion width = 0.43mm
; perimeters extrusion width = 0.48mm
; infill extrusion width = 0.46mm
; solid infill extrusion width = 0.48mm
; top infill extrusion width = 0.46mm
; first layer extrusion width = 0.58mm

; object:{"name":"square_tower","id":"square_tower.stl id:0 copy 0","object_center":[130.000000,130.000000,0.000000],"boundingbox_center":[130.000000,130.000000,25.000000],"boundingbox_size":[66.000000,65.945206,50.000000]}
; plater:{"center":[130.000000,130.000000,0.000000],"boundingbox_center":[130.000000,130.000000,25.000000],"boundingbox_size":[66.000000,65.945206,50.000000]}

;TYPE:Custom
START_PRINT_PETG
SET_HEATER_TEMPERATURE HEATER=heater_bed TARGET=85 
SET_HEATER_TEMPERATURE HEATER=extruder TARGET=235 BMP=default
; Filament gcode
;LAYER_CHANGE
;Z:0.32
;HEIGHT:0.32
;BEFORE_LAYER_CHANGE
;0.32


G10 ; retract
G1 Z0.32 F6000
;AFTER_LAYER_CHANGE
;0.32
G92 E0
G1 Z0.5
G1 X95.185 Y94.207 F120000
G1 Z0.32 F6000
G11 ; unretract
G92 E0
;TYPE:Skirt
;WIDTH:0.48
G1 F3000
G1 X93.891 Y95.574 E0.10301
G1 X93.318 Y96.383 E0.15724
G1 X92.686 Y97.487 E0.22687
G1 X92.391 Y98.163 E0.26725
G1 X91.863 Y99.892 E0.36619
G1 X91.649 Y101.804 E0.47144
G1 X91.647 Y158.098 E3.55204
G1 X91.881 Y160.192 E3.66735
G1 X92.567 Y162.269 E3.78706
G1 X93.654 Y164.128 E3.90488
G1 X95.176 Y165.786 E4.02804
G1 X96.763 Y166.932 E4.13516
G1 X98.389 Y167.695 E4.23348
G1 X99.324 Y167.989 E4.28709
G1 X101.269 Y168.323 E4.39507
G1 X158.616 Y168.326 E7.53328
G1 X159.459 Y168.244 E7.57965
G1 X161.012 Y167.905 E7.66666
G1 X162.97 Y167.081 E7.78287
G1 X164.802 Y165.805 E7.90508
G1 X166.109 Y164.426 E8.00904
G1 X166.682 Y163.617 E8.06327
G1 X167.314 Y162.513 E8.13288
G1 X167.609 Y161.837 E8.17327
G1 X168.137 Y160.108 E8.27219
G1 X168.351 Y158.19 E8.37777
G1 X168.325 Y101.435 E11.48358
G1 X168.095 Y99.701 E11.57933
G1 X167.43 Y97.726 E11.69337
G1 X166.407 Y95.956 E11.80523
G1 X165.125 Y94.492 E11.91174
G1 X163.34 Y93.131 E12.03455
G1 X161.653 Y92.323 E12.13692
G1 X160.906 Y92.066 E12.18014
G1 X159.618 Y91.786 E12.25229
G1 X158.518 Y91.673 E12.31281
G1 X101.159 Y91.683 E15.45166
G1 X98.905 Y92.12 E15.57732
G1 X96.974 Y92.949 E15.69231
G1 X95.234 Y94.172 E15.80872
G1 X95.472 Y94.511 F120000
G1 F3000
G1 X95.454 Y94.523 E15.80995
G1 X94.217 Y95.833 E15.9085
G1 X93.678 Y96.591 E15.95941
G1 X92.782 Y98.303 E16.06516
G1 X92.269 Y99.978 E16.161
G1 X92.064 Y101.828 E16.26287
G1 X92.062 Y158.09 E19.34168
G1 X92.286 Y160.1 E19.45236
G1 X92.942 Y162.089 E19.56697
G1 X93.986 Y163.878 E19.68035
G1 X95.438 Y165.463 E19.79797
G1 X96.974 Y166.574 E19.90169
G1 X98.545 Y167.31 E19.99664
G1 X99.417 Y167.584 E20.04664
G1 X101.294 Y167.908 E20.15088
G1 X158.608 Y167.911 E23.28729
G1 X159.396 Y167.833 E23.33064
G1 X160.908 Y167.502 E23.41532
G1 X162.78 Y166.711 E23.52657
G1 X164.538 Y165.484 E23.64388
G1 X165.787 Y164.163 E23.74334
G1 X166.322 Y163.409 E23.79395
G1 X167.218 Y161.697 E23.89969
G1 X167.73 Y160.022 E23.99552
G1 X167.936 Y158.172 E24.0974
G1 X167.913 Y101.495 E27.19893
G1 X167.693 Y99.808 E27.29202
G1 X167.056 Y97.907 E27.40178
G1 X166.069 Y96.198 E27.50974
G1 X164.843 Y94.797 E27.61166
G1 X163.116 Y93.481 E27.73045
G1 X161.496 Y92.707 E27.82869
G1 X160.794 Y92.466 E27.86932
G1 X159.536 Y92.194 E27.93972
G1 X158.518 Y92.088 E27.99577
G1 X101.192 Y92.097 E31.13279
G1 X99.023 Y92.518 E31.25371
G1 X97.171 Y93.315 E31.36408
G1 X95.521 Y94.476 E31.47446
G1 X95.76 Y94.815 F120000
G1 F3000
G1 X95.719 Y94.843 E31.47717
G1 X94.54 Y96.095 E31.57131
G1 X94.04 Y96.795 E31.61833
G1 X93.172 Y98.448 E31.72053
G1 X92.677 Y100.057 E31.81266
G1 X92.48 Y101.846 E31.91114
G1 X92.478 Y158.075 E34.98818
G1 X92.691 Y160.007 E35.09453
G1 X93.316 Y161.908 E35.20405
G1 X94.315 Y163.624 E35.3127
G1 X95.696 Y165.137 E35.42482
G1 X97.184 Y166.215 E35.52536
G1 X98.7 Y166.924 E35.61692
G1 X99.504 Y167.178 E35.66308
G1 X101.313 Y167.493 E35.76354
G1 X158.593 Y167.495 E38.89811
G1 X159.327 Y167.424 E38.93848
G1 X160.796 Y167.102 E39.02078
G1 X162.59 Y166.341 E39.12738
G1 X164.269 Y165.167 E39.2395
G1 X165.46 Y163.905 E39.3345
G1 X165.96 Y163.205 E39.38153
G1 X166.828 Y161.552 E39.48371
G1 X167.324 Y159.938 E39.57613
G1 X167.52 Y158.149 E39.67462
G1 X167.501 Y101.554 E42.77169
G1 X167.291 Y99.916 E42.86205
G1 X166.682 Y98.087 E42.96751
G1 X165.732 Y96.441 E43.07154
G1 X164.56 Y95.102 E43.16891
G1 X162.897 Y93.835 E43.28331
G1 X161.34 Y93.093 E43.37773
G1 X160.682 Y92.867 E43.41578
G1 X159.456 Y92.601 E43.48441
G1 X158.517 Y92.504 E43.53606
G1 X101.226 Y92.511 E46.67122
G1 X99.143 Y92.916 E46.78737
G1 X97.368 Y93.681 E46.89313
G1 X95.809 Y94.78 E46.99752
G1 X96.048 Y95.118 F120000
G1 F3000
G1 X95.986 Y95.162 E47.00163
G1 X94.863 Y96.357 E47.09142
G1 X94.4 Y97.003 E47.1349
G1 X93.562 Y98.592 E47.2332
G1 X93.085 Y100.141 E47.3219
G1 X92.895 Y101.868 E47.41699
G1 X92.893 Y158.066 E50.49229
G1 X93.096 Y159.913 E50.594
G1 X93.693 Y161.732 E50.69874
G1 X94.647 Y163.373 E50.80265
G1 X95.959 Y164.815 E50.90932
G1 X97.398 Y165.859 E51.0066
G1 X98.853 Y166.538 E51.09448
G1 X99.591 Y166.771 E51.13685
G1 X101.336 Y167.078 E51.23377
G1 X158.582 Y167.08 E54.36649
G1 X159.257 Y167.014 E54.40361
G1 X160.688 Y166.7 E54.48376
G1 X162.402 Y165.97 E54.58571
G1 X164.006 Y164.845 E54.69293
G1 X165.138 Y163.643 E54.78327
G1 X165.6 Y162.997 E54.82675
G1 X166.438 Y161.408 E54.92504
G1 X166.915 Y159.859 E55.01374
G1 X167.105 Y158.132 E55.10884
G1 X167.089 Y101.605 E58.20214
G1 X166.889 Y100.023 E58.28943
G1 X166.308 Y98.268 E58.39058
G1 X165.395 Y96.684 E58.49063
G1 X164.274 Y95.404 E58.58377
G1 X162.676 Y94.186 E58.69372
G1 X161.18 Y93.476 E58.78433
G1 X160.566 Y93.266 E58.81979
G1 X159.373 Y93.009 E58.88663
G1 X158.517 Y92.92 E58.93369
G1 X101.26 Y92.926 E62.06697
G1 X99.263 Y93.314 E62.1783
G1 X97.562 Y94.049 E62.27973
G1 X96.097 Y95.084 E62.37789
; INIT printing object square_tower.stl id:0 copy 0
M104 S235 ; set temperature
G92 E0
G10 ; retract
G1 Z0.5 F6000
; printing object square_tower.stl id:0 copy 0
G1 X106.294 Y100.392 F120000
G1 Z0.32 F6000
G11 ; unretract
;TYPE:External perimeter
;WIDTH:0.584
G1 F3000
G1 X153.706 Y100.392 E3.25053
G1 X153.792 Y100.127 E3.26965
G1 X154.274 Y99.293 E3.33568
G1 X154.918 Y98.577 E3.40169
G1 X155.697 Y98.011 E3.46771
G1 X156.577 Y97.62 E3.53373
G1 X157.519 Y97.419 E3.59974
G1 X158.481 Y97.419 E3.66575
G1 X159.423 Y97.62 E3.73177
G1 X160.303 Y98.011 E3.79779
G1 X161.082 Y98.577 E3.8638
G1 X161.726 Y99.293 E3.92982
G1 X162.208 Y100.127 E3.99583
G1 X162.505 Y101.042 E4.06184
G1 X162.606 Y102 E4.12786
G1 X162.505 Y102.958 E4.19387
G1 X162.208 Y103.873 E4.25989
G1 X161.726 Y104.707 E4.3259
G1 X161.082 Y105.423 E4.39191
G1 X160.303 Y105.989 E4.45793
G1 X159.608 Y106.298 E4.51008
G1 X159.608 Y153.702 E7.76006
G1 X160.303 Y154.011 E7.81221
G1 X161.082 Y154.577 E7.87822
G1 X161.726 Y155.293 E7.94424
G1 X162.208 Y156.127 E8.01025
G1 X162.505 Y157.042 E8.07626
G1 X162.606 Y158 E8.14228
G1 X162.505 Y158.958 E8.2083
G1 X162.208 Y159.873 E8.27431
G1 X161.726 Y160.707 E8.34032
G1 X161.082 Y161.423 E8.40633
G1 X160.303 Y161.989 E8.47235
G1 X159.423 Y162.38 E8.53837
G1 X158.481 Y162.581 E8.60438
G1 X157.519 Y162.581 E8.67039
G1 X156.577 Y162.38 E8.73641
G1 X155.697 Y161.989 E8.80243
G1 X154.918 Y161.423 E8.86844
G1 X154.274 Y160.707 E8.93446
G1 X153.792 Y159.873 E9.00049
G1 X153.706 Y159.608 E9.01961
G1 X106.294 Y159.608 E12.27014
G1 X106.208 Y159.873 E12.28927
G1 X105.726 Y160.707 E12.35528
G1 X105.082 Y161.423 E12.4213
G1 X104.303 Y161.989 E12.48731
G1 X103.423 Y162.38 E12.55333
G1 X102.481 Y162.581 E12.61934
G1 X101.519 Y162.581 E12.68536
G1 X100.577 Y162.38 E12.75137
G1 X99.697 Y161.989 E12.81739
G1 X98.918 Y161.423 E12.8834
G1 X98.274 Y160.707 E12.94942
G1 X97.792 Y159.873 E13.01543
G1 X97.495 Y158.958 E13.08144
G1 X97.394 Y158 E13.14746
G1 X97.495 Y157.042 E13.21348
G1 X97.792 Y156.127 E13.27949
G1 X98.274 Y155.293 E13.3455
G1 X98.918 Y154.577 E13.41152
G1 X99.697 Y154.011 E13.47753
G1 X100.392 Y153.702 E13.52968
G1 X100.392 Y106.298 E16.77965
G1 X99.697 Y105.989 E16.83181
G1 X98.918 Y105.423 E16.89782
G1 X98.274 Y104.707 E16.96384
G1 X97.792 Y103.873 E17.02985
G1 X97.495 Y102.958 E17.09587
G1 X97.394 Y102 E17.16188
G1 X97.495 Y101.042 E17.22789
G1 X97.792 Y100.127 E17.29391
G1 X98.274 Y99.293 E17.35992
G1 X98.918 Y98.577 E17.42594
G1 X99.697 Y98.011 E17.49195
G1 X100.577 Y97.62 E17.55797
G1 X101.519 Y97.419 E17.62398
G1 X102.481 Y97.419 E17.69
G1 X102.782 Y97.483 E17.71106
G1 X103.423 Y97.62 E17.75601
G1 X104.303 Y98.011 E17.82203
G1 X105.082 Y98.577 E17.88804
G1 X105.726 Y99.293 E17.95406
G1 X106.208 Y100.127 E18.02007
G1 X106.275 Y100.335 E18.03509
;WIPE_START
G1 X106.336 Y100.79 F120000
;WIPE_END
G92 E0
G10 ; retract
G1 X128.608 Y104.608
G11 ; unretract
G1 F3000
G1 X104.608 Y104.608 E1.64543
G1 X104.608 Y124.608 E3.01662
G1 X104.108 Y124.608 E3.05089
G1 X104.108 Y127.392 E3.24176
G1 X104.608 Y127.392 E3.27604
G1 X104.608 Y155.392 E5.19571
G1 X128.608 Y155.392 E6.84113
G1 X128.608 Y155.892 E6.87541
G1 X131.392 Y155.892 E7.06628
G1 X131.392 Y155.392 E7.10056
G1 X155.392 Y155.392 E8.74599
G1 X155.392 Y131.392 E10.39142
G1 X155.892 Y131.392 E10.4257
G1 X155.892 Y128.608 E10.61657
G1 X155.392 Y128.608 E10.65085
G1 X155.392 Y104.608 E12.29627
G1 X131.392 Y104.608 E13.9417
G1 X131.392 Y104.108 E13.97598
G1 X128.608 Y104.108 E14.16685
G1 X128.608 Y104.548 E14.19701
;WIPE_START
G1 X128.262 Y104.408 F120000
;WIPE_END
G92 E0
G10 ; retract
G1 X160.005 Y98.048
G11 ; unretract
;TYPE:Solid infill
;WIDTH:0.574506
G1 F4200
G1 X160.948 Y98.991 E0.08993
G1 X161.42 Y99.515 E0.13751
G1 X161.862 Y100.28 E0.19712
G1 X162.032 Y100.803 E0.2342
G1 X159.181 Y97.953 E0.5061
G1 X158.442 Y97.796 E0.55709
G1 X158.295 Y97.796 E0.56697
G1 X162.196 Y101.696 E0.93898
G1 X162.228 Y102 E0.95961
G1 X162.184 Y102.413 E0.98763
G1 X157.567 Y97.796 E1.42806
G1 X156.964 Y97.922 E1.46958
G1 X162.083 Y103.04 E1.9578
G1 X161.904 Y103.591 E1.99681
G1 X156.416 Y98.103 E2.52024
G1 X155.912 Y98.327 E2.55747
G1 X161.658 Y104.073 E3.10552
G1 X161.42 Y104.485 E3.13758
G1 X161.383 Y104.527 E3.14137
G1 X155.486 Y98.63 E3.70383
G1 X155.171 Y98.858 E3.73005
G1 X155.083 Y98.956 E3.73892
G1 X161.037 Y104.91 E4.30684
G1 X160.829 Y105.142 E4.32785
G1 X160.662 Y105.263 E4.3418
G1 X154.738 Y99.34 E4.90681
G1 X154.58 Y99.515 E4.92274
G1 X154.435 Y99.766 E4.94226
G1 X160.239 Y105.57 E5.49588
G1 X160.114 Y105.661 E5.50636
G1 X159.76 Y105.819 E5.5325
G1 X154.168 Y100.228 E6.0658
G1 X154.138 Y100.281 E6.06996
G1 X153.979 Y100.767 E6.10443
G1 X159.255 Y106.043 E6.60771
G1 X159.232 Y106.054 E6.60945
G1 X159.232 Y106.749 E6.65631
G1 X153.251 Y100.768 E7.22673
G1 X152.523 Y100.768 E7.27588
G1 X159.232 Y107.477 E7.91582
G1 X159.232 Y108.206 E7.96497
G1 X155.768 Y104.743 E8.29534
G1 X155.768 Y104.232 E8.32979
G1 X155.257 Y104.232 E8.36423
G1 X151.794 Y100.768 E8.6946
G1 X151.065 Y100.768 E8.74375
G1 X154.529 Y104.232 E9.07412
G1 X153.8 Y104.232 E9.12328
G1 X150.336 Y100.768 E9.45365
G1 X149.607 Y100.768 E9.5028
G1 X153.071 Y104.232 E9.83317
G1 X152.342 Y104.232 E9.88232
G1 X148.879 Y100.768 E10.21269
G1 X148.15 Y100.768 E10.26184
G1 X151.614 Y104.232 E10.59221
G1 X150.885 Y104.232 E10.64136
G1 X147.421 Y100.768 E10.97173
G1 X146.692 Y100.768 E11.02089
G1 X150.156 Y104.232 E11.35126
G1 X149.427 Y104.232 E11.40041
G1 X145.964 Y100.768 E11.73078
G1 X145.235 Y100.768 E11.77993
G1 X148.698 Y104.232 E12.1103
G1 X147.97 Y104.232 E12.15945
G1 X144.506 Y100.768 E12.48982
G1 X143.777 Y100.768 E12.53897
G1 X147.241 Y104.232 E12.86934
G1 X146.512 Y104.232 E12.9185
G1 X143.048 Y100.768 E13.24887
G1 X142.32 Y100.768 E13.29802
G1 X145.783 Y104.232 E13.62839
G1 X145.055 Y104.232 E13.67754
G1 X141.591 Y100.768 E14.00791
G1 X140.862 Y100.768 E14.05706
G1 X144.326 Y104.232 E14.38743
G1 X143.597 Y104.232 E14.43658
G1 X140.133 Y100.768 E14.76695
G1 X139.405 Y100.768 E14.81611
G1 X142.868 Y104.232 E15.14648
G1 X142.139 Y104.232 E15.19563
G1 X138.676 Y100.768 E15.526
G1 X137.947 Y100.768 E15.57515
G1 X141.411 Y104.232 E15.90552
G1 X140.682 Y104.232 E15.95467
G1 X137.218 Y100.768 E16.28504
G1 X136.489 Y100.768 E16.33419
G1 X139.953 Y104.232 E16.66456
G1 X139.224 Y104.232 E16.71372
G1 X135.761 Y100.768 E17.04409
G1 X135.032 Y100.768 E17.09324
G1 X138.495 Y104.232 E17.42361
G1 X137.767 Y104.232 E17.47276
G1 X134.303 Y100.768 E17.80313
G1 X133.574 Y100.768 E17.85228
G1 X137.038 Y104.232 E18.18265
G1 X136.309 Y104.232 E18.2318
G1 X132.845 Y100.768 E18.56217
G1 X132.117 Y100.768 E18.61133
G1 X135.58 Y104.232 E18.9417
G1 X134.852 Y104.232 E18.99085
G1 X131.388 Y100.768 E19.32122
G1 X130.659 Y100.768 E19.37037
G1 X134.123 Y104.232 E19.70074
G1 X133.394 Y104.232 E19.74989
G1 X129.93 Y100.768 E20.08026
G1 X129.202 Y100.768 E20.12941
G1 X132.665 Y104.232 E20.45978
G1 X131.936 Y104.232 E20.50894
G1 X128.473 Y100.768 E20.83931
G1 X127.744 Y100.768 E20.88846
G1 X130.708 Y103.732 E21.17114
G1 X129.979 Y103.732 E21.22029
G1 X127.015 Y100.768 E21.50297
G1 X126.286 Y100.768 E21.55212
G1 X129.25 Y103.732 E21.8348
G1 X128.521 Y103.732 E21.88395
G1 X125.558 Y100.768 E22.16663
G1 X124.829 Y100.768 E22.21578
G1 X128.232 Y104.171 E22.54036
G1 X128.232 Y104.232 E22.54446
G1 X127.564 Y104.232 E22.58952
G1 X124.1 Y100.768 E22.91989
G1 X123.371 Y100.768 E22.96904
G1 X126.835 Y104.232 E23.29941
G1 X126.106 Y104.232 E23.34856
G1 X122.643 Y100.768 E23.67893
G1 X121.914 Y100.768 E23.72808
G1 X125.377 Y104.232 E24.05845
G1 X124.649 Y104.232 E24.10761
G1 X121.185 Y100.768 E24.43798
G1 X120.456 Y100.768 E24.48713
G1 X123.92 Y104.232 E24.8175
G1 X123.191 Y104.232 E24.86665
G1 X119.727 Y100.768 E25.19702
G1 X118.999 Y100.768 E25.24617
G1 X122.462 Y104.232 E25.57654
G1 X121.733 Y104.232 E25.62569
G1 X118.27 Y100.768 E25.95606
G1 X117.541 Y100.768 E26.00522
G1 X121.005 Y104.232 E26.33559
G1 X120.276 Y104.232 E26.38474
G1 X116.812 Y100.768 E26.71511
G1 X116.083 Y100.768 E26.76426
G1 X119.547 Y104.232 E27.09463
G1 X118.818 Y104.232 E27.14378
G1 X115.355 Y100.768 E27.47415
G1 X114.626 Y100.768 E27.5233
G1 X118.09 Y104.232 E27.85367
G1 X117.361 Y104.232 E27.90283
G1 X113.897 Y100.768 E28.2332
G1 X113.168 Y100.768 E28.28235
G1 X116.632 Y104.232 E28.61272
G1 X115.903 Y104.232 E28.66187
G1 X112.44 Y100.768 E28.99224
G1 X111.711 Y100.768 E29.04139
G1 X115.174 Y104.232 E29.37176
G1 X114.446 Y104.232 E29.42092
G1 X110.982 Y100.768 E29.75128
G1 X110.253 Y100.768 E29.80044
G1 X113.717 Y104.232 E30.13081
G1 X112.988 Y104.232 E30.17996
G1 X109.524 Y100.768 E30.51033
G1 X108.796 Y100.768 E30.55948
G1 X112.259 Y104.232 E30.88985
G1 X111.531 Y104.232 E30.939
G1 X108.067 Y100.768 E31.26937
G1 X107.338 Y100.768 E31.31853
G1 X110.802 Y104.232 E31.64889
G1 X110.073 Y104.232 E31.69805
G1 X106.609 Y100.768 E32.02842
G1 X106.02 Y100.768 E32.06813
G1 X105.862 Y100.28 E32.10271
G1 X105.508 Y99.666 E32.15053
G1 X104.356 Y98.514 E32.26041
G1 X104.114 Y98.339 E32.28057
G1 X103.306 Y97.979 E32.34018
G1 X103.034 Y97.921 E32.35898
G1 X109.344 Y104.232 E32.96088
G1 X108.615 Y104.232 E33.01004
G1 X102.179 Y97.796 E33.62394
G1 X101.558 Y97.796 E33.66582
G1 X101.469 Y97.814 E33.67195
G1 X107.887 Y104.232 E34.28405
G1 X107.158 Y104.232 E34.3332
G1 X100.868 Y97.942 E34.93312
G1 X100.694 Y97.979 E34.94516
G1 X100.336 Y98.139 E34.97157
G1 X106.429 Y104.232 E35.55275
G1 X105.7 Y104.232 E35.6019
G1 X99.84 Y98.372 E36.16082
G1 X99.418 Y98.679 E36.19601
G1 X104.971 Y104.232 E36.72568
G1 X104.243 Y104.232 E36.77483
G1 X99.028 Y99.017 E37.27221
G1 X98.683 Y99.401 E37.30701
G1 X104.232 Y104.95 E37.83629
G1 X104.232 Y105.679 E37.88544
G1 X98.393 Y99.839 E38.44239
G1 X98.138 Y100.28 E38.47675
G1 X98.13 Y100.305 E38.47851
G1 X104.232 Y106.407 E39.06053
G1 X104.232 Y107.136 E39.10968
G1 X97.951 Y100.855 E39.70875
G1 X97.865 Y101.121 E39.72759
G1 X97.829 Y101.462 E39.75071
G1 X104.232 Y107.865 E40.36143
G1 X104.232 Y108.594 E40.41058
G1 X97.788 Y102.15 E41.02519
G1 X97.865 Y102.879 E41.07462
G1 X97.902 Y102.992 E41.08265
G1 X104.232 Y109.322 E41.68644
G1 X104.232 Y110.051 E41.73559
G1 X100.768 Y106.588 E42.06596
G1 X100.768 Y106.054 E42.10196
