; generated by SuperSlicer 2.3.57 on 2022-02-20 at 22:57:24 UTC

; 

; external perimeters extrusion width = 0.43mm
; perimeters extrusion width = 0.48mm
; infill extrusion width = 0.46mm
; solid infill extrusion width = 0.48mm
; top infill extrusion width = 0.46mm
; first layer extrusion width = 0.58mm

; object:{"name":"square_tower","id":"square_tower.stl id:0 copy 0","object_center":[130.000000,130.000000,0.000000],"boundingbox_center":[130.000000,130.000000,25.000000],"boundingbox_size":[66.000000,65.945206,50.000000]}
; plater:{"center":[130.000000,130.000000,0.000000],"boundingbox_center":[130.000000,130.000000,25.000000],"boundingbox_size":[66.000000,65.945206,50.000000]}

;TYPE:Custom
START_PRINT
SET_VELOCITY_LIMIT SQUARE_CORNER_VELOCITY=1 ACCEL=500
TUNING_TOWER COMMAND=SET_PRESSURE_ADVANCE PARAMETER=ADVANCE START=0 FACTOR=.005
; Filament gcode
;LAYER_CHANGE
;Z:0.32
;HEIGHT:0.32
;BEFORE_LAYER_CHANGE
;0.32


G10 ; retract
G1 Z0.32 F180000
;AFTER_LAYER_CHANGE
;0.32
G92 E0
G1 Z0.5
G1 X96.629 Y95.928
G1 Z0.32
G11 ; unretract
G92 E0
;TYPE:Skirt
;WIDTH:0.48
G1 F6000
G1 X95.632 Y96.996 E0.07993
G1 X95.265 Y97.505 E0.11426
G1 X94.5 Y98.936 E0.20308
G1 X94.065 Y100.34 E0.28351
G1 X93.894 Y101.907 E0.36977
G1 X93.893 Y158.044 E3.44175
G1 X94.072 Y159.694 E3.53258
G1 X94.599 Y161.309 E3.62557
G1 X95.446 Y162.772 E3.71807
G1 X96.598 Y164.045 E3.81202
G1 X97.912 Y165.001 E3.90091
G1 X99.229 Y165.611 E3.98038
G1 X99.806 Y165.795 E4.01351
G1 X101.382 Y166.079 E4.10112
G1 X158.56 Y166.08 E7.23009
G1 X160.425 Y165.735 E7.33387
G1 X161.953 Y165.077 E7.42491
G1 X163.368 Y164.075 E7.51983
G1 X164.368 Y163.004 E7.6
G1 X164.735 Y162.495 E7.63433
G1 X165.5 Y161.064 E7.72314
G1 X165.935 Y159.66 E7.80356
G1 X166.106 Y158.088 E7.89007
G1 X166.096 Y101.731 E10.97415
G1 X165.92 Y100.267 E11.05481
G1 X165.403 Y98.695 E11.14539
G1 X164.58 Y97.264 E11.23573
G1 X163.581 Y96.126 E11.31859
G1 X162.138 Y95.029 E11.4178
G1 X160.795 Y94.399 E11.49894
G1 X159.171 Y93.988 E11.59062
G1 X158.517 Y93.92 E11.62663
G1 X101.329 Y93.924 E14.7561
G1 X99.546 Y94.273 E14.85557
G1 X98.028 Y94.933 E14.94614
G1 X96.678 Y95.893 E15.0368
; INIT printing object square_tower.stl id:0 copy 0
G92 E0
G10 ; retract
G1 Z0.5 F180000
; printing object square_tower.stl id:0 copy 0
G1 X104.093 Y104.093
G1 Z0.32
G11 ; unretract
;TYPE:Internal perimeter
;WIDTH:0.584
G1 F6000
G1 X104.093 Y124.093 E1.37119
G1 X103.593 Y124.093 E1.40547
G1 X103.593 Y127.907 E1.667
G1 X104.093 Y127.907 E1.70128
G1 X104.093 Y155.907 E3.62094
G1 X128.093 Y155.907 E5.26637
G1 X128.093 Y156.407 E5.30065
G1 X131.907 Y156.407 E5.56218
G1 X131.907 Y155.907 E5.59646
G1 X155.907 Y155.907 E7.24189
G1 X155.907 Y131.907 E8.88731
G1 X156.407 Y131.907 E8.92159
G1 X156.407 Y128.093 E9.18312
G1 X155.907 Y128.093 E9.2174
G1 X155.907 Y104.093 E10.86283
G1 X131.907 Y104.093 E12.50826
G1 X131.907 Y103.593 E12.54253
G1 X128.093 Y103.593 E12.80407
G1 X128.093 Y104.093 E12.83834
G1 X104.153 Y104.093 E14.47966
G1 X104.608 Y104.608 F180000
;TYPE:External perimeter
G1 F6000
G1 X104.608 Y124.608 E15.85085
G1 X104.108 Y124.608 E15.88513
G1 X104.108 Y127.392 E16.076
G1 X104.608 Y127.392 E16.11028
G1 X104.608 Y155.392 E18.02994
G1 X128.608 Y155.392 E19.67537
G1 X128.608 Y155.892 E19.70965
G1 X131.392 Y155.892 E19.90052
G1 X131.392 Y155.392 E19.93479
G1 X155.392 Y155.392 E21.58022
G1 X155.392 Y131.392 E23.22565
G1 X155.892 Y131.392 E23.25993
G1 X155.892 Y128.608 E23.4508
G1 X155.392 Y128.608 E23.48508
G1 X155.392 Y104.608 E25.1305
G1 X131.392 Y104.608 E26.77593
G1 X131.392 Y104.108 E26.81021
G1 X128.608 Y104.108 E27.00108
G1 X128.608 Y104.608 E27.03536
G1 X104.668 Y104.608 E28.67667
;WIPE_START
G1 X104.208 Y104.608 F180000
;WIPE_END
G92 E0
G10 ; retract
G1 X100.907 Y105.964
G11 ; unretract
;TYPE:Internal perimeter
G1 F6000
G1 X99.956 Y105.54 E0.07138
G1 X99.265 Y105.038 E0.12997
G1 X98.693 Y104.403 E0.18856
G1 X98.266 Y103.663 E0.24715
G1 X98.002 Y102.85 E0.30573
G1 X97.912 Y102 E0.36432
G1 X98.002 Y101.15 E0.42291
G1 X98.266 Y100.337 E0.4815
G1 X98.693 Y99.597 E0.54009
G1 X99.265 Y98.962 E0.59867
G1 X99.956 Y98.46 E0.65726
G1 X100.737 Y98.112 E0.71585
G1 X101.573 Y97.935 E0.77444
G1 X102.427 Y97.935 E0.83303
G1 X102.675 Y97.987 E0.85038
G1 X103.263 Y98.112 E0.89161
G1 X104.044 Y98.46 E0.9502
G1 X104.735 Y98.962 E1.00879
G1 X105.307 Y99.597 E1.06738
G1 X105.734 Y100.337 E1.12596
G1 X105.919 Y100.907 E1.16705
G1 X154.079 Y100.907 E4.46888
G1 X154.265 Y100.338 E4.50994
G1 X154.693 Y99.597 E4.56857
G1 X155.265 Y98.962 E4.62716
G1 X155.956 Y98.46 E4.68575
G1 X156.737 Y98.112 E4.74434
G1 X157.573 Y97.935 E4.80293
G1 X158.427 Y97.935 E4.86151
G1 X159.263 Y98.112 E4.9201
G1 X160.044 Y98.46 E4.97869
G1 X160.735 Y98.962 E5.03728
G1 X161.307 Y99.597 E5.09587
G1 X161.734 Y100.337 E5.15445
G1 X161.998 Y101.15 E5.21304
G1 X162.088 Y102 E5.27163
G1 X161.998 Y102.85 E5.33022
G1 X161.734 Y103.663 E5.38881
G1 X161.307 Y104.403 E5.44739
G1 X160.735 Y105.038 E5.50598
G1 X160.044 Y105.54 E5.56457
G1 X159.093 Y105.964 E5.63595
G1 X159.093 Y154.037 E8.93181
G1 X160.044 Y154.46 E9.00319
G1 X160.735 Y154.962 E9.06178
G1 X161.307 Y155.597 E9.12037
G1 X161.734 Y156.337 E9.17895
G1 X161.998 Y157.15 E9.23754
G1 X162.088 Y158 E9.29613
G1 X161.998 Y158.85 E9.35472
G1 X161.734 Y159.663 E9.41331
G1 X161.307 Y160.403 E9.47189
G1 X160.735 Y161.038 E9.53048
G1 X160.044 Y161.54 E9.58907
G1 X159.263 Y161.888 E9.64766
G1 X158.427 Y162.065 E9.70625
G1 X157.573 Y162.065 E9.76483
G1 X156.737 Y161.888 E9.82342
G1 X155.956 Y161.54 E9.88201
G1 X155.265 Y161.038 E9.9406
G1 X154.693 Y160.403 E9.99919
G1 X154.265 Y159.662 E10.05781
G1 X154.08 Y159.093 E10.09888
G1 X105.919 Y159.093 E13.40072
G1 X105.734 Y159.663 E13.44181
G1 X105.307 Y160.403 E13.50039
G1 X104.735 Y161.038 E13.55898
G1 X104.044 Y161.54 E13.61757
G1 X103.263 Y161.888 E13.67615
G1 X102.427 Y162.065 E13.73474
G1 X101.573 Y162.065 E13.79333
G1 X100.737 Y161.888 E13.85192
G1 X99.956 Y161.54 E13.91051
G1 X99.265 Y161.038 E13.96909
G1 X98.693 Y160.403 E14.02768
G1 X98.266 Y159.663 E14.08627
G1 X98.002 Y158.85 E14.14485
G1 X97.912 Y158 E14.20344
G1 X98.002 Y157.15 E14.26204
G1 X98.266 Y156.337 E14.32062
G1 X98.693 Y155.597 E14.37921
G1 X99.265 Y154.962 E14.4378
G1 X99.956 Y154.46 E14.49638
G1 X100.907 Y154.037 E14.56776
G1 X100.907 Y106.024 E17.85951
G1 X100.392 Y106.298 F180000
;TYPE:External perimeter
G1 F6000
G1 X99.697 Y105.989 E17.91166
G1 X98.918 Y105.423 E17.97768
G1 X98.274 Y104.707 E18.04369
G1 X97.792 Y103.873 E18.10971
G1 X97.495 Y102.958 E18.17572
G1 X97.394 Y102 E18.24174
G1 X97.495 Y101.042 E18.30775
G1 X97.792 Y100.127 E18.37377
G1 X98.274 Y99.293 E18.43978
G1 X98.918 Y98.577 E18.5058
G1 X99.697 Y98.011 E18.57181
G1 X100.577 Y97.62 E18.63782
G1 X101.519 Y97.419 E18.70384
G1 X102.481 Y97.419 E18.76985
G1 X102.782 Y97.483 E18.79092
G1 X103.423 Y97.62 E18.83587
G1 X104.303 Y98.011 E18.90188
G1 X105.082 Y98.577 E18.9679
G1 X105.726 Y99.293 E19.03391
G1 X106.208 Y100.127 E19.09993
G1 X106.294 Y100.392 E19.11906
G1 X153.706 Y100.392 E22.36958
G1 X153.792 Y100.127 E22.3887
G1 X154.274 Y99.293 E22.45474
G1 X154.918 Y98.577 E22.52075
G1 X155.697 Y98.011 E22.58677
G1 X156.577 Y97.62 E22.65278
G1 X157.519 Y97.419 E22.7188
G1 X158.481 Y97.419 E22.78481
G1 X159.423 Y97.62 E22.85083
G1 X160.303 Y98.011 E22.91684
G1 X161.082 Y98.577 E22.98286
G1 X161.726 Y99.293 E23.04887
G1 X162.208 Y100.127 E23.11489
G1 X162.505 Y101.042 E23.1809
G1 X162.606 Y102 E23.24692
G1 X162.505 Y102.958 E23.31293
G1 X162.208 Y103.873 E23.37895
G1 X161.726 Y104.707 E23.44496
G1 X161.082 Y105.423 E23.51097
G1 X160.303 Y105.989 E23.57699
G1 X159.608 Y106.298 E23.62914
G1 X159.608 Y153.702 E26.87911
G1 X160.303 Y154.011 E26.93126
G1 X161.082 Y154.577 E26.99728
G1 X161.726 Y155.293 E27.06329
G1 X162.208 Y156.127 E27.12931
G1 X162.505 Y157.042 E27.19532
G1 X162.606 Y158 E27.26134
G1 X162.505 Y158.958 E27.32735
G1 X162.208 Y159.873 E27.39337
G1 X161.726 Y160.707 E27.45938
G1 X161.082 Y161.423 E27.52539
G1 X160.303 Y161.989 E27.59141
G1 X159.423 Y162.38 E27.65742
G1 X158.481 Y162.581 E27.72344
G1 X157.519 Y162.581 E27.78945
G1 X156.577 Y162.38 E27.85547
G1 X155.697 Y161.989 E27.92148
G1 X154.918 Y161.423 E27.9875
G1 X154.274 Y160.707 E28.05351
G1 X153.792 Y159.873 E28.11954
G1 X153.706 Y159.608 E28.13867
G1 X106.294 Y159.608 E31.3892
G1 X106.208 Y159.873 E31.40833
G1 X105.726 Y160.707 E31.47434
G1 X105.082 Y161.423 E31.54035
G1 X104.303 Y161.989 E31.60637
G1 X103.423 Y162.38 E31.67239
G1 X102.481 Y162.581 E31.7384
G1 X101.519 Y162.581 E31.80441
G1 X100.577 Y162.38 E31.87043
G1 X99.697 Y161.989 E31.93644
G1 X98.918 Y161.423 E32.00246
G1 X98.274 Y160.707 E32.06847
G1 X97.792 Y159.873 E32.13449
G1 X97.495 Y158.958 E32.2005
G1 X97.394 Y158 E32.26652
G1 X97.495 Y157.042 E32.33253
G1 X97.792 Y156.127 E32.39855
G1 X98.274 Y155.293 E32.46456
G1 X98.918 Y154.577 E32.53057
G1 X99.697 Y154.011 E32.59659
G1 X100.392 Y153.702 E32.64874
G1 X100.392 Y106.358 E35.8946
;WIPE_START
G1 X100.502 Y105.914 F180000
;WIPE_END
G92 E0
G10 ; retract
G1 X159.703 Y98.477
G11 ; unretract
;TYPE:Solid infill
;WIDTH:0.571608
G1 F3600
G1 X160.601 Y99.376 E0.08526
G1 X161.001 Y99.82 E0.12533
G1 X161.389 Y100.491 E0.17737
G1 X161.582 Y101.085 E0.21925
G1 X158.921 Y98.424 E0.47173
G1 X158.388 Y98.311 E0.50832
G1 X158.079 Y98.311 E0.52904
G1 X161.703 Y101.935 E0.87293
G1 X161.709 Y102 E0.87735
G1 X161.646 Y102.606 E0.91826
G1 X157.396 Y98.357 E1.32155
G1 X156.854 Y98.472 E1.35876
G1 X156.804 Y98.494 E1.36238
G1 X161.494 Y103.184 E1.80744
G1 X161.389 Y103.509 E1.83037
G1 X161.28 Y103.698 E1.84502
G1 X156.3 Y98.719 E2.31756
G1 X156.145 Y98.788 E2.32894
G1 X155.853 Y99 E2.3532
G1 X161.013 Y104.16 E2.84288
G1 X161.001 Y104.18 E2.84446
G1 X160.671 Y104.547 E2.87756
G1 X155.447 Y99.323 E3.37335
G1 X155.101 Y99.706 E3.40798
G1 X160.291 Y104.896 E3.90048
G1 X159.869 Y105.202 E3.93549
G1 X154.811 Y100.145 E4.41544
G1 X154.611 Y100.492 E4.44235
G1 X154.566 Y100.629 E4.45199
G1 X159.367 Y105.43 E4.9076
G1 X158.863 Y105.654 E4.94464
G1 X154.387 Y101.178 E5.36943
G1 X154.352 Y101.284 E5.37689
G1 X153.764 Y101.284 E5.41639
G1 X158.717 Y106.236 E5.88641
G1 X158.717 Y106.965 E5.93532
G1 X156.283 Y104.532 E6.16621
G1 X156.283 Y105.261 E6.21512
G1 X158.717 Y107.694 E6.44601
G1 X158.717 Y108.423 E6.49492
G1 X156.283 Y105.99 E6.72581
G1 X156.283 Y106.718 E6.77471
G1 X158.717 Y109.151 E7.00561
G1 X158.717 Y109.88 E7.05451
G1 X156.283 Y107.447 E7.28541
G1 X156.283 Y108.176 E7.33431
G1 X158.717 Y110.609 E7.5652
G1 X158.717 Y111.338 E7.61411
G1 X156.283 Y108.905 E7.845
G1 X156.283 Y109.634 E7.89391
G1 X158.717 Y112.067 E8.1248
G1 X158.717 Y112.795 E8.17371
G1 X156.283 Y110.362 E8.4046
G1 X156.283 Y111.091 E8.4535
G1 X158.717 Y113.524 E8.6844
G1 X158.717 Y114.253 E8.7333
G1 X156.283 Y111.82 E8.9642
G1 X156.283 Y112.549 E9.0131
G1 X158.717 Y114.982 E9.24399
G1 X158.717 Y115.71 E9.2929
G1 X156.283 Y113.277 E9.52379
G1 X156.283 Y114.006 E9.5727
G1 X158.717 Y116.439 E9.80359
G1 X158.717 Y117.168 E9.8525
G1 X156.283 Y114.735 E10.08339
G1 X156.283 Y115.464 E10.13229
G1 X158.717 Y117.897 E10.36319
G1 X158.717 Y118.626 E10.41209
G1 X156.283 Y116.193 E10.64299
G1 X156.283 Y116.921 E10.69189
G1 X158.717 Y119.354 E10.92278
G1 X158.717 Y120.083 E10.97169
G1 X156.283 Y117.65 E11.20258
G1 X156.283 Y118.379 E11.25149
G1 X158.717 Y120.812 E11.48238
G1 X158.717 Y121.541 E11.53129
G1 X156.283 Y119.108 E11.76218
G1 X156.283 Y119.837 E11.81108
G1 X158.717 Y122.27 E12.04198
G1 X158.717 Y122.998 E12.09088
G1 X156.283 Y120.565 E12.32178
G1 X156.283 Y121.294 E12.37068
G1 X158.717 Y123.727 E12.60157
G1 X158.717 Y124.456 E12.65048
G1 X156.283 Y122.023 E12.88137
G1 X156.283 Y122.752 E12.93028
G1 X158.717 Y125.185 E13.16117
G1 X158.717 Y125.913 E13.21007
G1 X156.283 Y123.48 E13.44097
G1 X156.283 Y124.209 E13.48987
G1 X158.717 Y126.642 E13.72077
G1 X158.717 Y127.371 E13.76967
G1 X156.283 Y124.938 E14.00056
G1 X156.283 Y125.667 E14.04947
G1 X158.717 Y128.1 E14.28036
G1 X158.717 Y128.829 E14.32927
G1 X156.283 Y126.396 E14.56016
G1 X156.283 Y127.124 E14.60907
G1 X158.717 Y129.557 E14.83996
G1 X158.717 Y130.286 E14.88886
G1 X156.783 Y128.353 E15.07231
G1 X156.783 Y129.082 E15.12121
G1 X158.717 Y131.015 E15.30466
G1 X158.717 Y131.744 E15.35356
G1 X156.783 Y129.811 E15.537
G1 X156.783 Y130.539 E15.58591
G1 X158.717 Y132.472 E15.76935
G1 X158.717 Y133.201 E15.81826
G1 X156.783 Y131.268 E16.0017
G1 X156.783 Y131.997 E16.05061
G1 X158.717 Y133.93 E16.23405
G1 X158.717 Y134.659 E16.28295
G1 X156.341 Y132.284 E16.50837
G1 X156.283 Y132.284 E16.51224
G1 X156.283 Y132.955 E16.55728
G1 X158.717 Y135.388 E16.78817
G1 X158.717 Y136.116 E16.83708
G1 X156.283 Y133.683 E17.06797
G1 X156.283 Y134.412 E17.11687
G1 X158.717 Y136.845 E17.34777
G1 X158.717 Y137.574 E17.39667
G1 X156.283 Y135.141 E17.62757
G1 X156.283 Y135.87 E17.67647
G1 X158.717 Y138.303 E17.90737
G1 X158.717 Y139.032 E17.95627
G1 X156.283 Y136.599 E18.18716
G1 X156.283 Y137.327 E18.23607
G1 X158.717 Y139.76 E18.46696
G1 X158.717 Y140.489 E18.51587
G1 X156.283 Y138.056 E18.74676
G1 X156.283 Y138.785 E18.79566
G1 X158.717 Y141.218 E19.02656
G1 X158.717 Y141.947 E19.07546
G1 X156.283 Y139.514 E19.30636
G1 X156.283 Y140.242 E19.35526
G1 X158.717 Y142.675 E19.58616
G1 X158.717 Y143.404 E19.63506
G1 X156.283 Y140.971 E19.86595
G1 X156.283 Y141.7 E19.91486
G1 X158.717 Y144.133 E20.14575
G1 X158.717 Y144.862 E20.19466
G1 X156.283 Y142.429 E20.42555
G1 X156.283 Y143.158 E20.47445
G1 X158.717 Y145.591 E20.70535
G1 X158.717 Y146.319 E20.75425
G1 X156.283 Y143.886 E20.98515
G1 X156.283 Y144.615 E21.03405
G1 X158.717 Y147.048 E21.26495
G1 X158.717 Y147.777 E21.31385
G1 X156.283 Y145.344 E21.54474
G1 X156.283 Y146.073 E21.59365
G1 X158.717 Y148.506 E21.82454
G1 X158.717 Y149.234 E21.87345
G1 X156.283 Y146.801 E22.10434
G1 X156.283 Y147.53 E22.15324
G1 X158.717 Y149.963 E22.38414
G1 X158.717 Y150.692 E22.43304
G1 X156.283 Y148.259 E22.66394
G1 X156.283 Y148.988 E22.71284
G1 X158.717 Y151.421 E22.94374
G1 X158.717 Y152.15 E22.99264
G1 X156.283 Y149.717 E23.22353
G1 X156.283 Y150.445 E23.27244
G1 X158.938 Y153.1 E23.52436
G92 E0
G10 ; retract
G1 X161.632 Y156.523 F180000
G11 ; unretract
G1 F3600
G1 X160.009 Y154.9 E0.15402
G1 X159.855 Y154.788 E0.16681
G1 X158.717 Y154.281 E0.25042
G1 X158.717 Y153.607 E0.29562
G1 X156.283 Y151.174 E0.52652
G1 X156.283 Y151.903 E0.57542
G1 X161.631 Y157.25 E1.08286
G1 X161.709 Y158 E1.13347
G1 X161.704 Y158.052 E1.13699
G1 X156.283 Y152.632 E1.65139
G1 X156.283 Y153.361 E1.70029
G1 X161.635 Y158.712 E2.20812
G1 X161.628 Y158.771 E2.21214
G1 X161.466 Y159.272 E2.24744
G1 X156.283 Y154.089 E2.73924
G1 X156.283 Y154.818 E2.78815
G1 X161.237 Y159.772 E3.25824
G1 X161.001 Y160.18 E3.28991
G1 X160.961 Y160.225 E3.2939
G1 X156.283 Y155.547 E3.73782
G1 X156.283 Y156.276 E3.78672
G1 X160.616 Y160.608 E4.19787
G1 X160.482 Y160.757 E4.21129
G1 X160.224 Y160.944 E4.23273
G1 X155.563 Y156.284 E4.67506
G1 X154.834 Y156.284 E4.72397
G1 X159.791 Y161.241 E5.19442
G1 X159.287 Y161.465 E5.23146
G1 X154.105 Y156.284 E5.72321
G1 X153.376 Y156.284 E5.77212
G1 X158.713 Y161.62 E6.27856
G1 X158.388 Y161.689 E6.30086
G1 X158.053 Y161.689 E6.32331
G1 X152.647 Y156.284 E6.83631
G1 X151.919 Y156.284 E6.88521
G1 X157.247 Y161.611 E7.39083
G1 X156.854 Y161.528 E7.41778
G1 X156.145 Y161.212 E7.46982
G1 X156.049 Y161.142 E7.47784
G1 X154.36 Y159.454 E7.63809
G1 X153.844 Y158.938 F180000
G1 F3600
G1 X151.19 Y156.284 E7.89001
G1 X150.461 Y156.284 E7.93891
G1 X152.894 Y158.717 E8.16981
G1 X152.165 Y158.717 E8.21871
G1 X149.732 Y156.284 E8.44961
G1 X149.004 Y156.284 E8.49851
G1 X151.437 Y158.717 E8.7294
G1 X150.708 Y158.717 E8.77831
G1 X148.275 Y156.284 E9.0092
G1 X147.546 Y156.284 E9.05811
G1 X149.979 Y158.717 E9.289
G1 X149.25 Y158.717 E9.33791
G1 X146.817 Y156.284 E9.5688
G1 X146.088 Y156.284 E9.6177
G1 X148.521 Y158.717 E9.8486
G1 X147.793 Y158.717 E9.8975
G1 X145.36 Y156.284 E10.1284
G1 X144.631 Y156.284 E10.1773
G1 X147.064 Y158.717 E10.40819
G1 X146.335 Y158.717 E10.4571
G1 X143.902 Y156.284 E10.68799
G1 X143.173 Y156.284 E10.7369
G1 X145.606 Y158.717 E10.96779
