;FLAVOR:Marlin
;TIME:667
;Filament used: 0.97397m
;Layer height: 0.2
;MINX:4.4
;MINY:4.4
;MINZ:0.2
;MAXX:255.6
;MAXY:255.6
;MAXZ:0.2
;LINEARADVANCEPROCESSED
;Generated with Cura_SteamEngine 4.12.1
M82 ;absolute extrusion mode
START_PRINT
SET_HEATER_TEMPERATURE HEATER=heater_bed TARGET=65
SET_HEATER_TEMPERATURE HEATER=extruder TARGET=225
G92 E0
G92 E0
G1 F600 E-0.5
;LAYER_COUNT:1
M900 K0.000000 T0 ;added by LinearAdvanceSettingPlugin
;LAYER:0
M107
M204 S2000
G0 F9000 X7.589 Y7.439 Z0.2
;TYPE:SKIRT
G1 F600 E0
G1 F3600 X8.274 Y6.823 E0.03064
G1 X9.01 Y6.27 E0.06126
G1 X9.791 Y5.782 E0.09189
G1 X10.611 Y5.364 E0.1225
G1 X11.465 Y5.019 E0.15314
G1 X12.345 Y4.749 E0.18375
G1 X13.245 Y4.557 E0.21436
G1 X14.159 Y4.443 E0.245
G1 X14.712 Y4.413 E0.26342
G1 X15.033 Y4.404 E0.2741
G1 X15.33 Y4.4 E0.28398
G1 X46.747 Y4.4 E1.32891
G1 X47.599 Y4.411 E1.35725
G1 X48.518 Y4.464 E1.38787
G1 X49.429 Y4.597 E1.41849
G1 X50.325 Y4.808 E1.4491
G1 X50.827 Y4.963 E1.46658
G1 X51.954 Y5.342 E1.50612
G1 X54.463 Y6.149 E1.59378
G1 X56.863 Y6.847 E1.67692
G1 X59.362 Y7.498 E1.76281
G1 X61.8 Y8.06 E1.84602
G1 X64.257 Y8.552 E1.92936
G1 X66.775 Y8.984 E2.01434
G1 X69.284 Y9.341 E2.09863
G1 X71.755 Y9.621 E2.18134
G1 X74.305 Y9.839 E2.26646
G1 X76.823 Y9.982 E2.35035
G1 X79.359 Y10.054 E2.43473
G1 X81.868 Y10.054 E2.51818
G1 X84.424 Y9.982 E2.60322
G1 X86.916 Y9.841 E2.68624
G1 X89.467 Y9.624 E2.77139
G1 X91.939 Y9.344 E2.85414
G1 X94.485 Y8.982 E2.93967
G1 X96.966 Y8.557 E3.02339
G1 X99.412 Y8.067 E3.10636
G1 X101.896 Y7.496 E3.19113
G1 X104.35 Y6.858 E3.27547
G1 X106.767 Y6.155 E3.35919
G1 X109.215 Y5.368 E3.44471
G1 X110.196 Y5.029 E3.47924
G1 X110.555 Y4.912 E3.49179
G1 X110.679 Y4.874 E3.49611
G1 X111.57 Y4.643 E3.52672
G1 X112.478 Y4.49 E3.55735
G1 X113.485 Y4.413 E3.59094
G1 X113.803 Y4.404 E3.60152
G1 X114.103 Y4.4 E3.6115
G1 X145.671 Y4.401 E4.66145
G1 X146.371 Y4.411 E4.68474
G1 X147.291 Y4.464 E4.71539
G1 X148.202 Y4.597 E4.74601
G1 X149.098 Y4.808 E4.77663
G1 X149.597 Y4.962 E4.794
G1 X150.748 Y5.349 E4.83438
G1 X153.236 Y6.149 E4.92131
G1 X155.636 Y6.847 E5.00444
G1 X158.135 Y7.498 E5.09033
G1 X160.573 Y8.06 E5.17355
G1 X163.03 Y8.552 E5.25689
G1 X165.548 Y8.984 E5.34186
G1 X168.057 Y9.341 E5.42615
G1 X170.528 Y9.621 E5.50886
G1 X173.078 Y9.839 E5.59399
G1 X175.596 Y9.982 E5.67787
G1 X178.132 Y10.054 E5.76225
G1 X180.641 Y10.054 E5.8457
G1 X183.197 Y9.982 E5.93075
G1 X185.689 Y9.841 E6.01376
G1 X188.24 Y9.624 E6.09892
G1 X190.712 Y9.344 E6.18166
G1 X193.258 Y8.982 E6.26719
G1 X195.739 Y8.557 E6.35091
G1 X198.185 Y8.067 E6.43388
G1 X200.669 Y7.496 E6.51866
G1 X203.123 Y6.858 E6.60299
G1 X205.54 Y6.155 E6.68671
G1 X207.988 Y5.368 E6.77224
G1 X208.969 Y5.029 E6.80676
G1 X209.305 Y4.919 E6.81852
G1 X209.428 Y4.881 E6.8228
G1 X210.319 Y4.648 E6.85343
G1 X211.226 Y4.493 E6.88404
G1 X212.258 Y4.413 E6.91846
G1 X212.577 Y4.404 E6.92908
G1 X212.876 Y4.4 E6.93902
G1 X244.43 Y4.401 E7.98851
G1 X245.128 Y4.41 E8.01173
G1 X246.047 Y4.462 E8.04235
G1 X246.958 Y4.593 E8.07296
G1 X247.854 Y4.803 E8.10357
G1 X248.729 Y5.09 E8.13419
G1 X249.576 Y5.452 E8.16483
G1 X250.388 Y5.886 E8.19545
G1 X251.159 Y6.388 E8.22605
G1 X251.884 Y6.956 E8.25669
G1 X252.557 Y7.585 E8.28732
G1 X253.172 Y8.269 E8.31792
G1 X253.726 Y9.004 E8.34853
G1 X254.214 Y9.785 E8.37916
G1 X254.633 Y10.605 E8.40979
G1 X254.979 Y11.458 E8.4404
G1 X255.249 Y12.338 E8.47102
G1 X255.442 Y13.239 E8.50167
G1 X255.556 Y14.152 E8.53227
G1 X255.587 Y14.712 E8.55092
G1 X255.596 Y15.033 E8.5616
G1 X255.6 Y15.33 E8.57148
G1 X255.599 Y54.817 E9.88483
G1 X255.588 Y55.543 E9.90898
G1 X255.534 Y56.462 E9.93959
G1 X255.4 Y57.373 E9.97022
G1 X255.211 Y58.187 E9.99801
G1 X255.043 Y58.8 E10.01916
G1 X254.378 Y61.359 E10.10709
G1 X253.817 Y63.804 E10.19053
G1 X253.312 Y66.319 E10.27585
G1 X252.898 Y68.755 E10.35803
G1 X252.537 Y71.297 E10.44343
G1 X252.251 Y73.819 E10.52785
G1 X252.041 Y76.312 E10.61106
G1 X251.899 Y78.831 E10.69497
G1 X251.828 Y81.374 E10.77959
G1 X251.83 Y83.886 E10.86314
G1 X251.903 Y86.431 E10.94782
G1 X252.048 Y88.975 E11.03257
G1 X252.258 Y91.435 E11.11469
G1 X252.553 Y94.014 E11.20102
G1 X252.903 Y96.465 E11.28337
G1 X253.339 Y99.002 E11.36899
G1 X253.823 Y101.417 E11.45091
G1 X254.399 Y103.91 E11.53601
G1 X255.048 Y106.402 E11.62166
G1 X255.114 Y106.635 E11.62972
G1 X255.187 Y106.908 E11.63911
G1 X255.258 Y107.186 E11.64866
G1 X255.447 Y108.087 E11.67928
G1 X255.581 Y109.424 E11.72397
G1 X255.593 Y109.754 E11.73495
G1 X255.6 Y110.139 E11.74776
G1 X255.599 Y149.626 E13.0611
G1 X255.588 Y150.352 E13.08525
G1 X255.534 Y151.271 E13.11587
G1 X255.4 Y152.182 E13.1465
G1 X255.211 Y152.996 E13.17429
G1 X255.043 Y153.609 E13.19543
G1 X254.378 Y156.168 E13.28337
G1 X253.817 Y158.613 E13.3668
G1 X253.312 Y161.128 E13.45212
G1 X252.898 Y163.564 E13.53431
G1 X252.537 Y166.106 E13.6197
G1 X252.251 Y168.628 E13.70412
G1 X252.041 Y171.121 E13.78733
G1 X251.899 Y173.64 E13.87125
G1 X251.828 Y176.183 E13.95586
G1 X251.83 Y178.695 E14.03941
G1 X251.903 Y181.24 E14.12409
G1 X252.048 Y183.784 E14.20884
G1 X252.258 Y186.244 E14.29096
G1 X252.553 Y188.823 E14.3773
G1 X252.903 Y191.274 E14.45965
G1 X253.339 Y193.811 E14.54526
G1 X253.823 Y196.226 E14.62719
G1 X254.399 Y198.719 E14.71229
G1 X255.048 Y201.211 E14.79794
G1 X255.114 Y201.444 E14.80599
G1 X255.187 Y201.717 E14.81539
G1 X255.258 Y201.995 E14.82493
G1 X255.447 Y202.896 E14.85555
G1 X255.581 Y204.233 E14.90024
G1 X255.593 Y204.563 E14.91123
G1 X255.6 Y204.948 E14.92403
G1 X255.599 Y244.395 E16.23605
G1 X255.59 Y245.122 E16.26023
G1 X255.539 Y246.041 E16.29084
G1 X255.408 Y246.953 E16.32149
G1 X255.198 Y247.849 E16.3521
G1 X254.912 Y248.724 E16.38271
G1 X254.551 Y249.571 E16.41334
G1 X254.117 Y250.383 E16.44396
G1 X253.615 Y251.155 E16.47459
G1 X253.047 Y251.88 E16.50522
G1 X252.419 Y252.553 E16.53584
G1 X251.735 Y253.169 E16.56645
G1 X251 Y253.723 E16.59706
G1 X250.22 Y254.212 E16.62768
G1 X249.4 Y254.631 E16.65831
G1 X248.547 Y254.977 E16.68893
G1 X247.667 Y255.248 E16.71955
G1 X246.767 Y255.441 E16.75017
G1 X245.853 Y255.556 E16.78081
G1 X245.288 Y255.587 E16.79963
G1 X244.967 Y255.596 E16.81031
G1 X244.67 Y255.6 E16.82019
G1 X213.102 Y255.599 E17.87014
G1 X212.402 Y255.589 E17.89343
G1 X211.482 Y255.536 E17.92408
G1 X210.571 Y255.403 E17.9547
G1 X209.675 Y255.192 E17.98531
G1 X209.176 Y255.038 E18.00268
G1 X208.025 Y254.651 E18.04307
G1 X205.537 Y253.851 E18.13
G1 X203.137 Y253.153 E18.21313
G1 X200.638 Y252.502 E18.29902
G1 X198.2 Y251.94 E18.38223
G1 X195.743 Y251.448 E18.46558
G1 X193.225 Y251.016 E18.55055
G1 X190.716 Y250.659 E18.63484
G1 X188.245 Y250.379 E18.71755
G1 X185.695 Y250.161 E18.80267
G1 X183.177 Y250.018 E18.88656
G1 X180.641 Y249.946 E18.97094
G1 X178.132 Y249.946 E19.05439
G1 X175.576 Y250.018 E19.13944
G1 X173.084 Y250.159 E19.22245
G1 X170.533 Y250.376 E19.30761
G1 X168.061 Y250.656 E19.39035
G1 X165.515 Y251.018 E19.47588
G1 X163.034 Y251.443 E19.5596
G1 X160.588 Y251.933 E19.64257
G1 X158.104 Y252.504 E19.72735
G1 X155.65 Y253.142 E19.81168
G1 X153.233 Y253.845 E19.8954
G1 X150.787 Y254.631 E19.98085
G1 X149.804 Y254.971 E20.01545
G1 X149.445 Y255.088 E20.02801
G1 X149.321 Y255.126 E20.03232
G1 X148.43 Y255.357 E20.06293
G1 X147.522 Y255.51 E20.09356
G1 X146.515 Y255.587 E20.12715
G1 X146.197 Y255.596 E20.13773
G1 X145.897 Y255.6 E20.14771
G1 X114.329 Y255.599 E21.19767
G1 X113.629 Y255.589 E21.22095
G1 X112.709 Y255.536 E21.2516
G1 X111.798 Y255.403 E21.28222
G1 X110.902 Y255.192 E21.31284
G1 X110.403 Y255.038 E21.33021
G1 X109.252 Y254.651 E21.3706
G1 X106.764 Y253.851 E21.45752
G1 X104.364 Y253.153 E21.54065
G1 X101.865 Y252.502 E21.62654
G1 X99.427 Y251.94 E21.70976
G1 X96.97 Y251.448 E21.7931
G1 X94.452 Y251.016 E21.87807
G1 X91.943 Y250.659 E21.96236
G1 X89.472 Y250.379 E22.04507
G1 X86.922 Y250.161 E22.1302
G1 X84.404 Y250.018 E22.21408
G1 X81.868 Y249.946 E22.29846
G1 X79.359 Y249.946 E22.38191
G1 X76.803 Y250.018 E22.46696
G1 X74.311 Y250.159 E22.54998
G1 X71.76 Y250.376 E22.63513
G1 X69.288 Y250.656 E22.71787
G1 X66.742 Y251.018 E22.80341
G1 X64.261 Y251.443 E22.88713
G1 X61.815 Y251.933 E22.9701
G1 X59.331 Y252.504 E23.05487
G1 X56.877 Y253.142 E23.1392
G1 X54.46 Y253.845 E23.22292
G1 X52.014 Y254.631 E23.30838
G1 X51.031 Y254.971 E23.34297
G1 X50.672 Y255.088 E23.35553
G1 X50.548 Y255.126 E23.35984
G1 X49.657 Y255.357 E23.39046
G1 X48.749 Y255.51 E23.42108
G1 X47.742 Y255.587 E23.45467
G1 X47.424 Y255.596 E23.46526
G1 X47.124 Y255.6 E23.47523
G1 X15.57 Y255.599 E24.52472
G1 X14.872 Y255.59 E24.54794
G1 X13.953 Y255.538 E24.57856
G1 X13.042 Y255.407 E24.60917
G1 X12.146 Y255.197 E24.63978
G1 X11.271 Y254.91 E24.67041
G1 X10.424 Y254.548 E24.70104
G1 X9.612 Y254.114 E24.73166
G1 X8.841 Y253.612 E24.76226
G1 X8.116 Y253.044 E24.7929
G1 X7.443 Y252.415 E24.82354
G1 X6.828 Y251.731 E24.85413
G1 X6.274 Y250.996 E24.88474
G1 X5.786 Y250.215 E24.91537
G1 X5.367 Y249.395 E24.946
G1 X5.021 Y248.542 E24.97662
G1 X4.751 Y247.662 E25.00723
G1 X4.558 Y246.761 E25.03788
G1 X4.444 Y245.848 E25.06848
G1 X4.413 Y245.277 E25.0875
G1 X4.404 Y244.944 E25.09858
G1 X4.4 Y244.658 E25.10809
G1 X4.401 Y205.16 E26.4218
G1 X4.412 Y204.453 E26.44532
G1 X4.467 Y203.534 E26.47594
G1 X4.6 Y202.623 E26.50656
G1 X4.789 Y201.813 E26.53423
G1 X4.957 Y201.2 E26.55537
G1 X5.62 Y198.648 E26.64306
G1 X6.188 Y196.173 E26.72752
G1 X6.68 Y193.714 E26.81093
G1 X7.104 Y191.228 E26.89481
G1 X7.463 Y188.703 E26.97964
G1 X7.749 Y186.181 E27.06406
G1 X7.959 Y183.688 E27.14727
G1 X8.101 Y181.169 E27.23118
G1 X8.172 Y178.626 E27.3158
G1 X8.17 Y176.114 E27.39935
G1 X8.097 Y173.569 E27.48403
G1 X7.952 Y171.025 E27.56878
G1 X7.739 Y168.529 E27.6521
G1 X7.456 Y166.056 E27.73489
G1 X7.091 Y163.499 E27.82079
G1 X6.655 Y160.965 E27.90631
G1 X6.177 Y158.583 E27.98712
G1 X5.601 Y156.09 E28.07222
G1 X4.952 Y153.598 E28.15787
G1 X4.835 Y153.179 E28.17234
G1 X4.762 Y152.903 E28.18183
G1 X4.566 Y152.004 E28.21244
G1 X4.448 Y151.091 E28.24306
G1 X4.415 Y150.512 E28.26235
G1 X4.405 Y150.18 E28.27339
G1 X4.4 Y149.861 E28.284
G1 X4.401 Y110.351 E29.59811
G1 X4.412 Y109.644 E29.62163
G1 X4.467 Y108.725 E29.65225
G1 X4.6 Y107.814 E29.68287
G1 X4.789 Y107.004 E29.71054
G1 X4.957 Y106.391 E29.73168
G1 X5.62 Y103.839 E29.81937
G1 X6.188 Y101.364 E29.90383
G1 X6.68 Y98.905 E29.98724
G1 X7.104 Y96.419 E30.07112
G1 X7.463 Y93.894 E30.15595
G1 X7.749 Y91.372 E30.24037
G1 X7.959 Y88.879 E30.32358
G1 X8.101 Y86.36 E30.40749
G1 X8.172 Y83.817 E30.49211
G1 X8.17 Y81.305 E30.57566
G1 X8.097 Y78.76 E30.66034
G1 X7.952 Y76.216 E30.74509
G1 X7.739 Y73.72 E30.82841
G1 X7.456 Y71.247 E30.9112
G1 X7.091 Y68.69 E30.9971
G1 X6.655 Y66.156 E31.08262
G1 X6.177 Y63.774 E31.16343
G1 X5.601 Y61.281 E31.24853
G1 X4.952 Y58.789 E31.33418
G1 X4.835 Y58.37 E31.34865
G1 X4.762 Y58.094 E31.35814
G1 X4.566 Y57.195 E31.38875
G1 X4.448 Y56.282 E31.41937
G1 X4.415 Y55.703 E31.43866
G1 X4.405 Y55.371 E31.4497
G1 X4.4 Y55.052 E31.46031
G1 X4.401 Y15.531 E32.77479
G1 X4.41 Y14.866 E32.79691
G1 X4.462 Y13.946 E32.82756
G1 X4.594 Y13.035 E32.85817
G1 X4.805 Y12.139 E32.88879
G1 X5.092 Y11.264 E32.91942
G1 X5.455 Y10.418 E32.95004
G1 X5.889 Y9.606 E32.98066
G1 X6.392 Y8.835 E33.01128
G1 X6.961 Y8.111 E33.0419
G1 X7.589 Y7.439 E33.0725
G0 F9000 X7.981 Y7.617
G1 F3600 X8.662 Y7.024 E33.10253
G1 X9.394 Y6.494 E33.13259
G1 X10.169 Y6.031 E33.16261
G1 X10.982 Y5.638 E33.19265
G1 X11.827 Y5.318 E33.2227
G1 X12.696 Y5.075 E33.25271
G1 X13.584 Y4.909 E33.28276
G1 X14.723 Y4.813 E33.32078
G1 X15.044 Y4.804 E33.33146
G1 X15.33 Y4.8 E33.34097
G1 X46.747 Y4.8 E34.3859
G1 X47.593 Y4.811 E34.41405
G1 X48.495 Y4.864 E34.4441
G1 X49.388 Y4.996 E34.47412
G1 X50.267 Y5.207 E34.50419
G1 X50.7 Y5.342 E34.51927
G1 X51.854 Y5.73 E34.55977
G1 X54.344 Y6.531 E34.64676
G1 X56.788 Y7.242 E34.73142
G1 X59.209 Y7.872 E34.81463
G1 X61.736 Y8.455 E34.90088
G1 X64.211 Y8.95 E34.98483
G1 X66.694 Y9.376 E35.06862
G1 X69.214 Y9.735 E35.15328
G1 X71.747 Y10.023 E35.23808
G1 X74.284 Y10.239 E35.32276
G1 X76.788 Y10.382 E35.40618
G1 X79.348 Y10.454 E35.49136
G1 X81.88 Y10.454 E35.57557
G1 X84.42 Y10.382 E35.66009
G1 X86.973 Y10.238 E35.74514
G1 X89.475 Y10.025 E35.82866
G1 X92.004 Y9.738 E35.91331
G1 X94.537 Y9.378 E35.9984
G1 X97.04 Y8.95 E36.08286
G1 X99.516 Y8.454 E36.16685
G1 X101.981 Y7.887 E36.25098
G1 X104.457 Y7.243 E36.33607
G1 X106.896 Y6.534 E36.42055
G1 X109.328 Y5.752 E36.50552
G1 X110.327 Y5.407 E36.54067
G1 X110.672 Y5.295 E36.55273
G1 X110.796 Y5.257 E36.55705
G1 X111.671 Y5.031 E36.58711
G1 X112.562 Y4.883 E36.61715
G1 X113.496 Y4.813 E36.6483
G1 X113.814 Y4.804 E36.65888
G1 X114.103 Y4.8 E36.66849
G1 X145.666 Y4.801 E37.71828
G1 X146.366 Y4.811 E37.74157
G1 X147.267 Y4.864 E37.77159
G1 X148.161 Y4.996 E37.80164
G1 X149.469 Y5.341 E37.84664
G1 X150.625 Y5.73 E37.8872
G1 X153.117 Y6.531 E37.97426
G1 X155.561 Y7.242 E38.05892
G1 X157.982 Y7.872 E38.14213
G1 X160.509 Y8.455 E38.22838
G1 X162.984 Y8.95 E38.31233
G1 X165.467 Y9.376 E38.39612
G1 X167.987 Y9.735 E38.48078
G1 X170.52 Y10.023 E38.56557
G1 X173.057 Y10.239 E38.65026
G1 X175.561 Y10.382 E38.73368
G1 X178.121 Y10.454 E38.81886
G1 X180.653 Y10.454 E38.90307
G1 X183.193 Y10.382 E38.98759
G1 X185.746 Y10.238 E39.07264
G1 X188.248 Y10.025 E39.15615
G1 X190.777 Y9.738 E39.24081
G1 X193.31 Y9.378 E39.3259
G1 X195.813 Y8.95 E39.41036
G1 X198.289 Y8.454 E39.49435
G1 X200.754 Y7.887 E39.57848
G1 X203.23 Y7.243 E39.66357
G1 X205.669 Y6.534 E39.74805
G1 X208.101 Y5.752 E39.83302
G1 X209.1 Y5.407 E39.86817
G1 X209.423 Y5.301 E39.87948
G1 X209.546 Y5.263 E39.88376
G1 X210.42 Y5.035 E39.9138
G1 X211.311 Y4.885 E39.94385
G1 X212.269 Y4.813 E39.9758
G1 X212.588 Y4.804 E39.98642
G1 X212.876 Y4.8 E39.996
G1 X244.425 Y4.801 E41.04532
G1 X245.123 Y4.81 E41.06854
G1 X246.024 Y4.861 E41.09856
G1 X246.918 Y4.993 E41.12861
G1 X247.796 Y5.202 E41.15863
G1 X248.653 Y5.489 E41.18869
G1 X249.48 Y5.85 E41.2187
G1 X250.273 Y6.283 E41.24875
G1 X251.024 Y6.784 E41.27878
G1 X251.728 Y7.35 E41.30883
G1 X252.379 Y7.976 E41.33886
G1 X252.972 Y8.657 E41.3689
G1 X253.502 Y9.388 E41.39893
G1 X253.966 Y10.163 E41.42897
G1 X254.36 Y10.976 E41.45902
G1 X254.68 Y11.82 E41.48904
G1 X254.924 Y12.69 E41.5191
G1 X255.09 Y13.578 E41.54914
G1 X255.187 Y14.723 E41.58736
G1 X255.196 Y15.044 E41.59804
G1 X255.2 Y15.33 E41.60756
G1 X255.199 Y54.811 E42.9207
G1 X255.188 Y55.537 E42.94485
G1 X255.134 Y56.438 E42.97487
G1 X255.001 Y57.331 E43.0049
G1 X254.825 Y58.081 E43.03052
G1 X254.668 Y58.653 E43.05025
G1 X253.987 Y61.275 E43.14035
G1 X253.429 Y63.707 E43.22334
G1 X252.919 Y66.245 E43.30944
G1 X252.495 Y68.744 E43.39375
G1 X252.142 Y71.228 E43.4772
G1 X251.857 Y73.742 E43.56135
G1 X251.642 Y76.291 E43.64643
G1 X251.499 Y78.832 E43.73108
G1 X251.428 Y81.363 E43.81529
G1 X251.43 Y83.897 E43.89957
G1 X251.503 Y86.466 E43.98505
G1 X251.646 Y88.96 E44.06814
G1 X251.864 Y91.513 E44.15336
G1 X252.154 Y94.049 E44.23826
G1 X252.506 Y96.518 E44.32121
G1 X252.945 Y99.07 E44.40733
G1 X253.436 Y101.521 E44.49048
G1 X254.008 Y103.996 E44.57496
G1 X254.664 Y106.515 E44.66154
G1 X254.729 Y106.744 E44.66946
G1 X254.8 Y107.007 E44.67852
G1 X254.871 Y107.285 E44.68806
G1 X255.055 Y108.169 E44.71809
G1 X255.181 Y109.438 E44.76051
G1 X255.193 Y109.768 E44.77149
G1 X255.2 Y110.139 E44.78383
G1 X255.199 Y149.62 E46.09698
G1 X255.188 Y150.346 E46.12113
G1 X255.134 Y151.247 E46.15115
G1 X255.001 Y152.14 E46.18118
G1 X254.825 Y152.89 E46.2068
G1 X254.668 Y153.462 E46.22653
G1 X253.987 Y156.084 E46.31663
G1 X253.429 Y158.516 E46.39962
G1 X252.919 Y161.054 E46.48572
G1 X252.495 Y163.553 E46.57003
G1 X252.142 Y166.037 E46.65347
G1 X251.857 Y168.551 E46.73763
G1 X251.642 Y171.1 E46.82271
G1 X251.499 Y173.641 E46.90735
G1 X251.428 Y176.172 E46.99157
G1 X251.43 Y178.706 E47.07585
G1 X251.503 Y181.275 E47.16133
G1 X251.646 Y183.769 E47.24442
G1 X251.864 Y186.322 E47.32964
G1 X252.154 Y188.858 E47.41454
G1 X252.506 Y191.327 E47.49749
G1 X252.945 Y193.879 E47.58361
G1 X253.436 Y196.33 E47.66675
G1 X254.008 Y198.805 E47.75124
G1 X254.664 Y201.324 E47.83782
G1 X254.729 Y201.553 E47.84574
G1 X254.8 Y201.816 E47.8548
